X:1
T:The First Five Hungarian Dances
T:The Complete Hungarian Dances (WIP)
T:For Tuba and Piano
T:Johannes Brahms
T:Arr. and some harmonies by Henry Miller (AKA PeteyPiranhathe2nd) Based on arrangements by Alfredo Piatti and Percy Carmichael 
T:Public Domain
T:Public Domain
T:Public Domain
T:Public Domain
T:Public Domain
T:Public Domain
T:Public Domain
T:Public Domain
T:Public Domain
T:Public Domain
T:Public Domain
T:Public Domain
T:Public Domain
T:Public Domain
T:Public Domain
T:Public Domain
T:Public Domain
T:Public Domain
T:Public Domain
T:Public Domain
T:Public Domain
T:Public Domain
T:Public Domain
T:Public Domain
T:Public Domain
T:Public Domain
T:Public Domain
T:Public Domain
T:Public Domain
T:Public Domain
T:Public Domain
T:Public Domain
T:Public Domain
T:Public Domain
T:Public Domain
C:Johannes Brahms
Z:Arr. PeteyPiranhathe2nd
Z:Public Domain
%%score 1 { ( 2 3 ) | ( 4 5 6 ) }
L:1/8
Q:1/4=152
M:2/4
K:Bb
V:1 bass nm="B♭ Tuba" snm="B♭ Tb."
V:2 bass nm="Piano" snm="Pno."
V:3 bass 
V:4 bass 
V:5 bass 
V:6 bass 
V:1
"^Molto allegro" D,3 C, | D,3 C, | E,3 D, | A,,3 B,, | G,,4- | G,,4 | D,3 C, | D,3 E, | G,3 F, | %9
 D,3 E, | C,4- | C,4 |"^13" E,3 D, | E,3 D, | D,3 C, | A,,3 B,, | A,,4- | A,,4 | E,3 D, | E,3 D, | %20
 D,3 A,, | C,3 B,, | G,,4- | G,,4 ||"^25" D,3 C, | D,3 C, | E,3 D, | A,,3 B,, | G,,4- | G,,4 | %30
 D,3 C, | D,3 E, | G,3 F, | D,3 E, | C,4- | C,4 |"^37" E,3 D, | E,3 D, | D,3 C, | A,,3 B,, | %40
 A,,4- | A,,4 | E,3 D, | E,3 D, | D,3 A,, | C,3 B,, | G,,4- | G,,4 || %48
"^49" B,,/C,/B,,/ z/ A,,/B,,/A,,/ z/ | G,,/A,,/G,,/ z/ F,,/G,,/F,,/ z/ | %50
 E,,/F,,/E,,/ z/ D,,/E,,/D,,/ z/ |{/E,,} D,, C,,2 C,, | A,,/B,,/A,,/ z/ G,,/A,,/G,,/ z/ | %53
 ^F,,/G,,/F,,/ z/ E,,/=F,,/E,,/ z/ | D,,/E,,/D,,/ z/ C,,/D,,/C,,/ z/ |{/D,,} C,, B,,,2 B,,, | %56
 B,,/A,,/G,,/^F,,/ G,,/=F,,/E,,/D,,/ | E,,/D,,/C,,/B,,,/ C,,/B,,,/A,,,/G,,,/ | %58
 ^F,,,/G,,,/A,,,/B,,,/ C,,/D,,/=E,,/^F,,/ | G,,^F,,/A,,/ G,, z || %60
"^61" .B,,/.C,/.B,,/.G,,/ .A,,/.B,,/.A,,/.^F,,/ | .G,,/.A,,/.G,,/.E,,/ .=F,,/.G,,/.F,,/.D,,/ | %62
 .E,,/.F,,/.E,,/.C,,/ .D,,/.E,,/.D,,/.=B,,,/ |{/E,,} D,, C,,2 C,, | %64
 .A,,/.B,,/.A,,/.^F,,/ .G,,/.A,,/.G,,/.E,,/ | .F,,/.G,,/.F,,/.D,,/ .E,,/.F,,/.E,,/.C,,/ | %66
 .D,,/.E,,/.D,,/.B,,,/ .C,,/.D,,/.C,,/.A,,,/ |{/D,,} C,, B,,,2 B,,, | %68
 B,,/G,,/B,,/G,,/ D,,/B,,,/D,,/B,,,/ | G,,/B,,/G,,/D,,/ G,,/D,,/B,,,/D,,/ | %70
 ^F,,,/A,,,/D,,/^F,,/ A,,/D,/^F,/A,/ | G,^F,/A,/ G, z |:"^73" D,,2 D,z/C,/ | B,,3 A,,/B,,/ | %74
 C,/B,,/A,,/G,,/ ^F,,/D,,/=E,,/F,,/ | G,,^F,,/A,,/ G,, z | A,,,/^C,,/=E,,/G,,/ B,, z/ A,,/ | %77
 G,,>F,, =E,,/D,,/^C,,/E,,/ | D,,/F,,/A,,/D,/ ^C,/A,,/=B,,/C,/ | D,^C,/=E,/ D,2 :: %80
"^81" F,/_E,/C,/A,,/ F,,/E,,/A,,,- | A,,,E,, E,,/G,,/F,,/E,,/ | z D,, ^C,,D,, | z B,, A,,B,, | %84
 G,/E,/B,,/G,,/ E,,/B,,,/G,,,- | G,,,B,,, A,,,B,,, | %86
"^poco rit."[Q:1/4=76] z D,,[Q:1/4=72] ^C,,D,, |[Q:1/4=68] z B,, A,,[Q:1/4=64]!fermata!B,, | %88
[Q:1/4=152]"^a tempo" ^F,,>G,, A,,>G,, | ^F,,>E,, D,,>C,, | B,,,/D,,/D,,/B,,/ A,,/G,,/^F,,/A,,/ | %91
 G,,^F,,/A,,/ G,, z :|"^93" D,3 C, | D,3 C, | E,3 D, | A,,3 B,, | G,,4- | G,,4 | D,3 C, | D,3 E, | %100
 G,3 F, | D,3 E, | C,4- | C,4 |"^105" E,3 D, | E,3 D, | D,3 C, | A,,3 B,, | A,,4- | A,,4 | E,3 D, | %111
 E,3 D, | D,3 A,, | C,3 B,, | G,,4- | G,,4 ||"^117" D,3 C, | D,3 C, | E,3 D, | A,,3 B,, | G,,4- | %121
 G,,4 | D,3 C, | D,3 E, | G,3 F, | D,3 E, | C,4- | C,4 |"^129" E,3 D, | E,3 D, | D,3 C, | %131
 A,,3 B,, | A,,4- | A,,4 | E,3 D, | E,3 D, | D,3 A,, | C,3 B,, | G,,4- | G,,4 || %140
"^141" B,,/C,/B,,/ z/ A,,/B,,/A,,/ z/ | G,,/A,,/G,,/ z/ F,,/G,,/F,,/ z/ | %142
 E,,/F,,/E,,/ z/ D,,/E,,/D,,/ z/ |{/E,,} D,, C,,2 C,, | A,,/B,,/A,,/ z/ G,,/A,,/G,,/ z/ | %145
 ^F,,/G,,/F,,/ z/ E,,/=F,,/E,,/ z/ | D,,/E,,/D,,/ z/ C,,/D,,/C,,/ z/ |{/D,,} C,, B,,,2 B,,, | %148
 B,,/A,,/G,,/^F,,/ G,,/=F,,/E,,/D,,/ | E,,/D,,/C,,/B,,,/ C,,/B,,,/A,,,/G,,,/ | %150
 ^F,,,/G,,,/A,,,/B,,,/ C,,/D,,/=E,,/^F,,/ | G,,^F,,/A,,/ G,, z | %152
"^153" .B,,/.C,/.B,,/.G,,/ .A,,/.B,,/.A,,/.^F,,/ | .G,,/.A,,/.G,,/.E,,/ .=F,,/.G,,/.F,,/.D,,/ | %154
 .E,,/.F,,/.E,,/.C,,/ .D,,/.E,,/.D,,/.=B,,,/ |{/E,,} D,, C,,2 C,, | %156
 .A,,/.B,,/.A,,/.^F,,/ .G,,/.A,,/.G,,/.E,,/ | .F,,/.G,,/.F,,/.D,,/ .E,,/.F,,/.E,,/.C,,/ | %158
 .D,,/.E,,/.D,,/.B,,,/ .C,,/.D,,/.C,,/.A,,,/ |{/D,,} C,, B,,,2 B,,, | %160
 B,,/A,,/G,,/^F,,/ G,,/=F,,/E,,/D,,/ | E,,/D,,/C,,/B,,,/ C,,/B,,,/A,,,/G,,,/ | %162
 A,,/G,,/F,,/E,,/ F,,/E,,/D,,/C,,/ | D,,/C,,/B,,,/A,,,/ B,,,/A,,,/G,,,/^F,,,/ | %164
 G,,,/B,,,/E,,/G,,/ G,,,/B,,,/E,,/G,,/ | G,, z ^F,, z | !fermata!G,,4 |] %167
[K:F][Q:1/4=120]"^Allegretto" A,,3 A,,- | A,,^G,,/A,,/ B,,/A,,/G,,/A,,/ | F,3 D, | A,,2 F,,2 | %171
 G,,3 G,,- | G,,^F,,/G,,/ A,,/G,,/F,,/G,,/ | B,,3 G,, | E,,2 ^C,,2 | D,,2- D,,/^C,,/D,,/E,,/ | %176
 D,,2 B,,,2 | A,,,3 A,,,- | A,,,^G,,,/A,,,/ B,,,/A,,,/G,,,/A,,,/ | F,,,2- F,,,/E,,,/F,,,/G,,,/ | %180
 F,,,2 E,,,2 | D,,3 D,,- | D,,^C,,/D,,/ E,,/D,,/C,,/D,,/ ::"^17" D,,3 D,, | z D,,2 E,, | %185
 C,,3 =B,,, | A,,,2 E,,,2 | D,,3 D,, | z D,,2 E,, | z C,,2 =B,,,- | B,,, A,,,2 E,,, | A,,,3 A,,, | %192
 ^G,,,2 F,,,2 | z E,,,2 E,,, | A,,,2 E,,, z | A,,,3 A,,, | z ^G,,,2 F,,, | E,,,3 A,,, | E,,,4 :| %199
"^33" A,,3 A,,- | A,,^G,,/A,,/ B,,/A,,/G,,/A,,/ | F,3 D, | A,,2 F,,2 | G,,3 G,,- | %204
 G,,^F,,/G,,/ A,,/G,,/F,,/G,,/ | B,,3 G,, | E,,2 ^C,,2 | D,,2- D,,/^C,,/D,,/E,,/ | D,,2 B,,,2 | %209
 A,,,3 A,,,- | A,,,^G,,,/A,,,/ B,,,/A,,,/G,,,/A,,,/ | F,,,2- F,,,/E,,,/F,,,/G,,,/ | F,,,2 E,,,2 | %213
 D,,3 D,,- | D,,^C,,/D,,/ E,,/D,,/C,,/D,,/ |[K:D][Q:1/4=144]"^Allegro""^49" F,,A,, A,,A,, | %216
 A,,A,, A,,A,, | G,,B,, B,,B,, | B,,B,, B,,B,, | A,,C, C,C, | C,C, C,C, | F,2 E,D, | C,B,, A,,2 | %223
 B,,2 A,,G,, | F,,E,, D,,2 | C,,E,, E,,E,, | D,,F,, F,,F,, | G,,E,, C,,E,, | D,,F,, D,,2 | %229
"^63" F,,^G,,/A,,/ B,,/A,,/G,,/A,,/ | B,,/A,,/^G,,/A,,/ B,,/A,,/G,,/A,,/ | %231
 G,,^A,,/B,,/ C,/B,,/A,,/B,,/ | C,/B,,/^A,,/B,,/ C,/B,,/A,,/B,,/ | A,,^B,,/C,/ D,/C,/B,,/C,/ | %234
 D,/C,/^B,,/C,/ D,/C,/B,,/C,/ | A,,2 A,,^G,, | A,,B,, A,,2 | B,,2 A,,G,, | F,,E,, D,,2 | %239
"^73" C,,^D,,/E,,/ F,,/E,,/D,,/E,,/ | D,,^E,,/F,,/ G,,/F,,/E,,/F,,/ | %241
 G,,E,,/A,,,/ C,,/A,,,/E,,/A,,,/ | D,,F,, D,,2 | F,,2 E,,D,, | C,,B,,, A,,,2 | B,,,2 A,,,G,,, | %246
 F,,,E,,, D,,2 | C,,E,,/A,,,/ E,,/A,,,/E,,/A,,,/ | D,,F,,/A,,,/ F,,/A,,,/F,,/A,,,/ | %249
 G,,E,,/A,,,/ E,,/A,,,/E,,/A,,,/ | D,, z D,, z |:[K:F][Q:1/4=120]"^Allegretto""^85" A,,3 A,,- | %252
 A,,^G,,/A,,/ B,,/A,,/G,,/A,,/ | F,3 D, | A,,2 F,,2 | G,,3 G,,- | G,,^F,,/G,,/ A,,/G,,/F,,/G,,/ | %257
 B,,3 G,, | E,,2 ^C,,2 | D,,2- D,,/^C,,/D,,/E,,/ | D,,2 B,,,2 | A,,,3 A,,,- | %262
 A,,,^G,,,/A,,,/ B,,,/A,,,/G,,,/A,,,/ | F,,,2- F,,,/E,,,/F,,,/G,,,/ | F,,,2 E,,,2 | D,,3 D,,- | %266
 D,,^C,,/D,,/ E,,/D,,/C,,/D,,/ ::"^101" D,,3 D,, | z D,,2 E,, | C,,3 =B,,, | A,,,2 E,,,2 | %271
 D,,3 D,, | z D,,2 E,, | z C,,2 =B,,,- | B,,, A,,,2 E,,, | A,,,3 A,,, | ^G,,,2 F,,,2 | %277
 z E,,,2 E,,, | A,,,2 E,,, z | A,,,3 A,,, | z ^G,,,2 F,,, | E,,,3 A,,, | E,,,4 :|"^117" A,,3 A,,- | %284
 A,,^G,,/A,,/ B,,/A,,/G,,/A,,/ | F,3 D, | A,,2 G,,2 | G,,3 G,,- | G,,^F,,/G,,/ A,,/G,,/F,,/G,,/ | %289
 B,,3 G,, | E,,2 ^C,,2 | D,,2- D,,/^C,,/D,,/E,,/ | D,,2 B,,,2 | A,,,3 A,,,- | %294
 A,,,^G,,,/A,,,/ B,,,/A,,,/G,,,/A,,,/ | F,,,2- F,,,/E,,,/F,,,/G,,,/ | F,,,2 E,,,2 | %297
 F,,,2- F,,,/E,,,/F,,,/G,,,/ | F,,,2 E,,,2 | F,,2- F,,/E,,/F,,/G,,/ | F,,2 E,,2 | %301
 z D,,2 ^C,,/D,,/ | E,,/D,,/^C,,/D,,/ E,,/D,,/C,,/D,,/ | .D,, z z2 |] %304
[K:F][Q:1/4=86]"^Andantino\n" C, |:{C,D,E,} .F,/.F,,/.B,,/.D,/ .C,.C, |{C,D,E,} .F,.E, D,2 | %307
{/C,} .F, C,2 .C, |{C,D,E,} .F,/.C,,/.F,,/.B,,/ .A,,.F,, |{F,,G,,A,,} .B,,.A,, G,,2 |1 %310
 .A,, F,,2 C, :|2 .A,, F,,2 z ||"^9" z4 | z4 | z4 | z4 | z4 | z2 z .A,, | %318
"^15" .D,/.E,/.F, z .E,/.F,/ | .G, z/ F,/ F,/E,/E,/D,/ | E,2 .A,.A,, | .D,/.E,/.F, z .E,/.F,/ | %322
 .G, z/ F,/ F,/E,/E,/A,,/ | D,2 C,2 |:"^21"{C,D,E,} .F,/.F,,/.B,,/.D,/ .C,.C, | %325
{C,D,E,} .F,.E, D,2 |{/C,} .F, C,2 .C, |{C,D,E,} .F,/.C,,/.F,,/.B,,/ .A,,.F,, | %328
{F,,G,,A,,} .B,,.A,, G,,2 |1 .A,, F,,2 C, :|2 .A,, F,,2 z ||"^28" z4 | z4 | %333
 z/ B,/A,/^G,/ A,/=G,/F,/E,/ | D, z z2 | z4 | z/ B,,/A,,/^G,,/ A,,/=B,,/^C,/D,/ | %337
[Q:1/4=114]"^Moderato""^34" z4 | z4 | z/ B,/A,/^G,/ A,/=G,/F,/E,/ | D, z z2 | z4 | %342
 z/ B,,/A,,/^G,,/ A,,/^C,/E,/A,/ |[K:D][Q:1/4=160]"^Vivace""^40" D, A,,2 .B,, | A,,2 B,,2 | A,,4 | %346
{A,,B,,C,} .D, A,,2 .B,, | A,,2 G,,7/4F,,/4 | F,,2 (6:4:6D,,/F,,/A,,/D,/F,/A,/ | .D, A,,2 .B,, | %350
 A,,2 B,,7/4A,,/4 | A,,4 |{A,,B,,C,} .D, A,,2 .B,, | A,,2 G,,7/4F,,/4 | F,,2 z A,, | %355
[K:F][Q:1/4=120]"^Allegretto""^52" .D,/.E,/.F, z .E,/.F,/ | .G, z/ .F,/ F,/E,/E,/D,/ | %357
 z!mp! B,2 A, | z ^G, z A, | z3/2 .F,/ F,/E,/E, | z B,, A,,^G,, | %361
[Q:1/4=116]"^Allegretto" A,,.F, .D,.A,, | z .B, z .^G, | z A,2 A, | z .F, .D,.A,, | z .B,, z .A,, | %366
[Q:1/4=96]"^Andante" z2 z!f! C, |[Q:1/4=86]"^Tempo I""^64"{C,D,E,} .F,/.F,,/.B,,/.D,/ .C,.C, | %368
{C,D,E,} .F,.E, D,2 |{/A,,} .F, C,2 .C, |{C,D,E,} .F,/.C,,/.F,,/.B,,/ .A,,.F,, | %371
{F,,G,,A,,} .B,,.A,, G,,2 | .A,, F,,2 .C, |[Q:1/4=72]"^Rall."{C,D,E,} .F,/.F,,/.B,,/.D,/ .C,.C, | %374
 G,/F,/F,/D,/ D,2 |{/C,} .A, C,2 .C, |[Q:1/4=60]"^Adagio"{C,D,E,} .F,/.C,,/.F,,/.B,,/ .A,,.F,, | %377
{F,,G,,A,,} .B,,.A,, G,,>C, | .A,, z F, z |][K:Bb][Q:1/4=80]"^Poco sostenuto" D,,{/F,,}E,, D,, | %380
 G,,4- | G,,D,,{/F,,} E,,D,, | C,,4- | C,,C,,{/E,,} D,,C,, | A,,4- | A,,C,, D,,C,, | B,,,4- | %387
 B,,,B,, A,,G,, | D,4- | D,B,, A,,G,, | E,4- | E,E, D,C, | B,,2 D,2 | A,,2 D,2 | G,,4- | %395
 G,,D,,{/F,,} E,,D,, |"^18" G,,4- | G,,D,,{/F,,} E,,D,, | C,,4- | C,,C,,{/E,,} D,,C,, | A,,4- | %401
 A,,C,, D,,C,, | B,,,4- | B,,,B,, A,,G,, | D,4- | D,B,, A,,G,, |[Q:1/4=88]"^stringendo" E,4- | %407
 E,[Q:1/4=96]E, D,C, |[Q:1/4=104] B,,2 D,2 |[Q:1/4=120] A,,2[Q:1/4=136] D,2 |[Q:1/4=144] G,,4- | %411
[Q:1/4=152] G,, z z2 |:[Q:1/4=160]"^Vivace""^34" F,,3 F,, | G,,2 A,,2 | B,, B,,2 A,,/B,,/ | %415
 C,/B,,/A,,/B,,/ C,/B,,/A,,/B,,/ | G,3 F, | E,2 D,2 | C, C,2 =B,,/C,/ | %419
 D,/C,/=B,,/C,/ D,/C,/B,,/C,/ | F,3 C, | F,2 E,2 | D, D,2 ^C,/D,/ | E,/D,/^C,/D,/ E,/D,/C,/D,/ | %424
 E,3 C, | B,,2 A,,2 | G,, G,,2 ^F,,/G,,/ |1 A,,/G,,/^F,,/G,,/ A,,/G,,/F,,/G,,/ :|2 %428
 A,,/G,,/^F,,/G,,/ G,, z || z D,,{/F,,} E,,D,, |"^52" G,,4- | G,,D,,{/F,,} E,,D,, | C,,4- | %433
 C,,C,,{/E,,} D,,C,, | A,,4- | A,,C,, D,,C,, | B,,,4- | B,,,B,, A,,G,, | D,4- | D,B,, A,,G,, | %440
 E,4- | E,E, D,C, | B,,2 D,2 | A,,2 D,2 | G,,4 | G, z z2!fine! |][K:G] z2 z D,, | E,,F,, G,,A,, |: %448
"^70"{/^A,,} B,,3{/F,,} G,, |{/^C,,} D,,3{/F,,} G,, |{/^D,,} E,,3{/B,,} C, | %451
{/^A,,} B,,2{/F,,} G,,2 |{/^G,,} A,,2{/^A,,} B,,2 |1 %453
{/F,,} G,,/D,,/E,,/F,,/ G,,/4F,,/ z/4 A,,/4G,,/ z/4 :|2{/F,,} G,,/D,,/E,,/F,,/ G,,.G,, || %455
"^77"{/^D,,} E,,3{/D,,} E,, |{/^C,,} D,,2{/B,,,} =C,,2 |{/^A,,,} B,,,3{/A,,,} B,,, | %458
{/^G,,,} A,,,2{/F,,,} =G,,,2 |{/^E,,,} F,,,2{/F,,,} G,,,2 |{/^D,,} E,,/B,,,/^C,,/D,,/ E,,G,, | %461
{/^D,,} E,,3{/D,,} E,, |{/^C,,} D,,2{/B,,,} =C,,2 |{/^A,,,} B,,,3{/A,,,} B,,, | %464
{/^G,,,} A,,,2{/F,,,} =G,,,2 |{/^E,,,} F,,,2{/F,,,} G,,,2 |{/^D,,} E,,/B,,,/^C,,/D,,/ E,,.=D,, |: %467
"^89"{/^A,,} B,,3{/F,,} G,, |{/^C,,} D,,3{/F,,} G,, |{/^D,,} E,,3{/B,,} C, | %470
{/^A,,} B,,2{/F,,} G,,2 |{/^G,,} A,,2{/^A,,} B,,2 |1 %472
{/F,,} G,,/D,,/E,,/F,,/ G,,/4F,,/ z/4 A,,/4G,,/ z/4 :|2{/F,,} G,,/D,,/E,,/F,,/ .G,,.G,, || %474
{/^D,,} E,,3{/D,,} E,, |{/^C,,} D,,2{/B,,,} =C,,2 |{/^A,,,} B,,,3{/A,,,} B,,, | %477
{/^G,,,} A,,,2{/F,,,} =G,,,2 |{/^E,,,} F,,,2{/F,,,} G,,,2 |{/^D,,} E,,/B,,,/^C,,/D,,/ E,,.G,, | %480
{/^D,,} E,,3{/D,,} E,, |{/^C,,} D,,2{/B,,,} =C,,2 |{/^A,,,} B,,,3{/A,,,} B,,, | %483
{/^G,,,} A,,,2{/F,,,} =G,,,2 |{/^E,,,} F,,,2{/F,,,} G,,,2 |{/^D,,} E,,/B,,,/^C,,/D,,/ E,,.=D,, | %486
 B,,4 | z2 D,,2 | B,,4 | z2 D,,2 | B,,4- | B,,4- | B,, z z2!D.C.! || %493
[K:Bb][Q:1/4=144]"^Allegro" (D,,3 G,,) | (B,,3 G,,) | (^F,,3 G,,/A,,/) | G,,4 | (E,,3 F,,/G,,/) | %498
 D,,4 | (C,,/B,,,/)(B,,,/A,,,/) (A,,,>D,,) | G,,,4 | D,,3 G,,,/B,,,/ | D,,3 B,,, | %503
 A,,,3 B,,,/C,,/ | B,,,4 | E,,/F,,/G,,/E,,/ D,,/E,,/F,,/D,,/ | %506
 C,,/D,,/E,,/C,,/ B,,,/C,,/D,,/B,,,/ | (C,,/B,,,/)(B,,,/A,,,/) (A,,,>D,,) | (!-(!G,,,2 !-)!G,,2) | %509
"^17" (D,,3 G,,) | (B,,3 G,,) | (^F,,3 G,,/A,,/) | G,,4 | E,,3 F,,/G,,/ | D,,4 | %515
 (C,/B,,/)(B,,/A,,/) (A,,>D,,) | G,,,4 | D,,>G,,, B,,,/D,,/G,,/B,,/ | D,3 B,, | A,,3 B,,/C,/ | %520
 B,,4 | E,,/F,,/G,,/E,,/ D,,/E,,/F,,/D,,/ | C,,/D,,/E,,/C,,/ B,,,/C,,/D,,/B,,,/ | %523
 (C,,/B,,,/)(B,,,/A,,,/) (A,,,>D,,) | !-(!G,,,2 !-)!G,,2 |:"^33" D,2 D,2 | E,3 D, | %527
 z C,2 =B,,/C,/ | D,/C,/=B,,/D,/ C,/ z/ z | C,2 C,2 | D,3 C, | z B,,2 A,,/B,,/ | %532
 C,/B,,/A,,/C,/ B,, z |[Q:1/4=72] A,,2 A,,2 | C, !tenuto!B,,2 A,,- | .A,, G,,2 ^F,,/G,,/ | %536
 A,,/G,,/^F,,/A,,/ G,,2 |[Q:1/4=144] D,, z z D,, | .=E,, z .^F,, z |{/A,,} G,, G,,2 ^F,,/G,,/ | %540
 (5:4:5(A,,/G,,/^F,,/G,,/A,,/ G,,) z ::[K:G][Q:1/4=176]"^Vivace""^49" G,D, D,D, | D,C, B,,C, | %543
 D,2 D,2 | G,D, D,D, | D,C, B,,A,, | G,,2 G,,2 ::[Q:1/4=80]"^Adagio""^55" B,,2 C,2 | B,,2 A,,2 | %549
[Q:1/4=176]"^Vivace" .B,,.B,,.C,.C, | (D,G, D,2) |[Q:1/4=80]"^Adagio" B,,2 C,2 | D,2 D,2 | %553
[Q:1/4=176]"^Vivace" .D,.C,.B,,.A,, | (G,,G, G,,2) :|[K:Bb][Q:1/4=144]"^Allegro""^63" (D,,3 G,,) | %556
 (B,,3 G,,) | (^F,,3 G,,/A,,/) | G,,4 | (E,,3 F,,/G,,/) | D,,4 | %561
 (C,,/B,,,/)(B,,,/A,,,/) (A,,,>D,,) | G,,,4 | D,,3 G,,,/B,,,/ | D,,3 B,,, | A,,,3 B,,,/C,,/ | %566
 B,,,4 | E,,/F,,/G,,/E,,/ D,,/E,,/F,,/D,,/ | C,,/D,,/E,,/C,,/ B,,,/C,,/D,,/B,,,/ | %569
 (C,,/B,,,/)(B,,,/A,,,/) (A,,,>D,,) | (!-(!G,,,2 !-)!G,,2) |"^79" (D,,3 G,,) | (B,,3 G,,) | %573
 (^F,,3 G,,/A,,/) | G,,4 | E,,3 F,,/G,,/ | D,,4 | (C,/B,,/)(B,,/A,,/) (A,,>D,,) | G,,,4 | %579
 D,,>G,,, B,,,/D,,/G,,/B,,/ | D,3 B,, | A,,3 B,,/C,/ | B,,4 | E,,/F,,/G,,/E,,/ D,,/E,,/F,,/D,,/ | %584
 C,,/D,,/E,,/C,,/ B,,,/C,,/D,,/B,,,/ | (C,,/B,,,/)(B,,,/A,,,/) (A,,,>D,,) | !-(!G,,,2 !-)!G,,2 | %587
"^95" D,2 D,2 | E,3 D, | z C,2 =B,,/C,/ | D,/C,/=B,,/D,/ C,/ z/ z | C,2 C,2 | D,3 C, | %593
 z B,,2 A,,/B,,/ | C,/B,,/A,,/C,/ B,, z |[Q:1/4=72] A,,2 A,,2 | C, !tenuto!B,,2 A,,- | %597
 .A,, G,,2 ^F,,/G,,/ | A,,/G,,/^F,,/A,,/ G,,2 |[Q:1/4=144] D,, z z D,, | .=E,, z .^F,, z | %601
{/A,,} G,, G,,2 ^F,,/G,,/ | (5:4:5(A,,/G,,/^F,,/G,,/A,,/ G,,) z | G, z D, z | G,,3 z |] %605
[K:Eb][Q:1/4=152]"^Vivace" E,, z !fermata!B,,,2- | B,,,(3B,,,/C,,/B,,,/ =A,,,B,,, | C,,2 B,,,2 | %608
 E,,2 B,,,2 | D,,2 C,,2 | z (3C,,/D,,/C,,/ =B,,,C,, | D,,2 C,,2 | B,,,2 A,,,2 | C,,2 B,,,2 | %614
[Q:1/4=76]"^Adagio" z (3B,,,/C,,/B,,,/ =A,,,B,,, | C,,2 B,,,2 | E,,2 B,,,2 | %617
[Q:1/4=152]"^Vivace""^13" A,,2 A,,2 | G,,3 G,, | A,,PF,, =E,,F,, | G,,2 E,,2 | A,,2 A,,2 | %622
 G,,3 A,,/B,,/ | C, z C,,2- | C,,2 D,,2 | F,,/E,,/D,,/F,,/ E,, z ::"^22" G,,2 E,,=A,,, | %627
 C,,2 B,,,2 | G,,G,, E,,=A,,, | C,,2 B,,,2 | z F,, =E,,F,, | G,,2 (3_E,,D,,E,, | F,,E,, D,,C,,- | %633
 C,,2 B,,,2 | G,2 E,=A,, | C,2 B,,2 | G,G, E,=A,, | C,2 B,,2 | A,,2 A,,2 | G,,3 G,, | %640
 A,,PF,, =E,,F,, | G,,2 E,,2 | A,,2 A,,2 | G,,3 A,,/B,,/ | C, z C,,2- | C,,2 D,,2 | %646
 F,,/E,,/D,,/F,,/ E,, z ::[K:Gb][Q:1/4=76]"^Molto sostenuto""^43" B,,2 B,,2 | B,,3 =D,, | %649
 E,,/=D,,/E,,/F,,/ G,,2 | F,,B,,,/=D,,/ F,,/B,,/=D,/F,/ | B,, z B,,2 | B,,2- B,,/A,,/G,,/F,,/ | %653
 E,,/=D,,/E,,/F,,/ F,,>=A,,, | %654
 B,,,B,,,/4C,,/4B,,,/4=A,,,/4 B,,,/4C,,/4=D,,/4E,,/4F,,/4G,,/4A,,/4C,/4 :: %655
[Q:1/4=152]"^Vivace""^51" B,,2 B,,2 | C, C,2 C,/D,/ | E,D, C,2 | D, B,,2 B, | A,/B,/C G,/A,/B, | %660
 F,/G,/A, E,/F,/G, | G,/F,/E,/G,/ F,/E,/=D,/F,/ |1 %662
 E,/B,,,/=C,,/=D,,/ E,,/4D,,/4E,,/4F,,/4(3G,,/A,,/_C,/ :|2 E,/B,,/=C,/=D,/ E, !fermata!z || %664
[K:Eb]"^60" E,, z !fermata!B,,,2- | B,,,(3B,,,/C,,/B,,,/ =A,,,B,,, | C,,2 B,,,2 | E,,2 B,,,2 | %668
 D,,2 C,,2 | z (3C,,/D,,/C,,/ =B,,,C,, | D,,2 C,,2 | B,,,2 A,,,2 | C,,2 B,,,2 | %673
[Q:1/4=76]"^Adagio" z (3B,,,/C,,/B,,,/ =A,,,B,,, | C,,2 B,,,2 | E,,2 B,,,2 | %676
[Q:1/4=152]"^Vivace" A,,2 A,,2 | G,,3 G,, | A,,PF,, =E,,F,, | G,,2 E,,2 | A,,2 A,,2 | %681
 G,,3 A,,/B,,/ | C, z C,,2- | C,,2 D,,2 | F,,/E,,/D,,/F,,/ E,, z |"^81" E,, z !fermata!B,,,2- | %686
 B,,,(3B,,,/C,,/B,,,/ =A,,,B,,, | C,,2 B,,,2 | E,,2 B,,,2 | D,,2 C,,2 | z (3C,,/D,,/C,,/ =B,,,C,, | %691
 D,,2 C,,2 | B,,,2 A,,,2 | C,,2 B,,,2 | z[Q:1/4=76]"^Adagio" (3B,,,/C,,/B,,,/ =A,,,B,,, | %695
 C,,2 B,,,2 | E,,2 B,,,2 |[Q:1/4=152]"^Vivace" A,,2 A,,2 | G,,3 G,, | A,,PF,, =E,,F,, | G,,2 E,,2 | %701
 A,,2 A,,2 | G,,3 A,,/B,,/ | C, z C,,2- | C,,2 D,,2 | F,,/E,,/D,,/F,,/ E,, z | %706
"^102" G,,2 E,,=A,,, | C,,2 B,,,2 | G,,G,, E,,=A,,, | C,,2 B,,,2 | z F,, =E,,F,, | %711
 G,,2 (3_E,,D,,E,, | F,,E,, D,,C,,- | C,,2 B,,,2 | G,2 E,=A,, | C,2 B,,2 | G,G, E,=A,, | C,2 B,,2 | %718
 A,,2 A,,2 | G,,3 G,, | A,,PF,, =E,,F,, | G,,2 E,,2 | A,,2 A,,2 | G,,3 A,,/B,,/ | C, z C,,2- | %725
 C,,2 D,,2 | F,,/E,,/D,,/F,,/ E,, z | C, z D, z | E, z3 |] %729
V:2
 B,3 A, | B,3 A, | [^F,A,C]4 | [C,^F,]4 | [B,,G,]2[K:treble] d'/g'/b/d'/ | g/b/d/g/ B/d/G/ z/ | %6
[K:bass] [G,B,]3 A, | B,3 G, | [A,E]4 | [F,=B,]4 | [E,C]2[K:treble]!8va(! g'/c''/e'/g'/!8va)! | %11
 c'/e'/g/c'/ e/g/c/ z/ |[K:bass] [^F,A,C]4 | [^F,A,C]4 | [G,A,]4 | [E,G,A,]4 | %16
 [^F,A,]2[K:treble]!8va(! a'/d''/^f'/a'/ | d'/^f'/a/d'/!8va)! ^f/a/d/ z/ |[K:bass] [G,A,]4 | %19
 [G,A,]4 | [^F,A,]4 | [D,^F,]4 | [B,,D,G,]2[K:treble] d'/g'/b/d'/ | g/b/d/g/ B/d/G/ z/ || %24
 (6:4:6[B,D]D,[B,D] D,[A,C]D, | (6:4:6[B,D]D,[B,D] D,[A,C]D, | (6:4:6[A,CE]^F,[A,CE] F,[A,D]F, | %27
 (6:4:6[^F,A,]C,[F,A,] C,[F,B,]C, | z[K:treble] d'/g'/ b/d'/g/b/ | d/g/B/d/ G z | %30
[K:bass] (6:4:6[B,D]D,[B,D] D,[A,C]D, | (6:4:6[B,D]G,[B,D] G,[B,E]G, | %32
 (6:4:6[CEG]A,[CEG] A,[CEF]A, | (6:4:6[=B,D]F,[B,D] F,[B,E]F, | %34
 z!8va(! g'/c''/ e'/g'/!8va)!c'/e'/ | g/c'/e/g/ c z | (6:4:6[A,E]^F,[A,E] F,[A,D]F, | %37
 (6:4:6[A,E]^F,[A,E] F,[A,D]F, | (6:4:6[A,D]G,[A,D] G,[A,C]G, | (6:4:6[G,A,]E,[G,A,] E,[G,B,]E, | %40
 z!8va(! a'/d''/ ^f'/a'/d'/f'/ | a/d'/!8va)!^f/a/ d z | (6:4:6[A,E]G,[A,E] G,[A,D]G, | %43
 (6:4:6[A,E]G,[A,E] G,[A,D]G, | (6:4:6[A,D]^F,[A,D] F,[A,C]F, | (6:4:6[^F,C]D,[F,C] D,[F,B,]D, | %46
 z d'/g'/ b/d'/g/b/ | d/g/B/d/ G z ||[K:bass] z [D,D]2 [D,D] | z [D,D]2 [G,D] | %50
 z [G,CE]2 [G,=B,D] | z [E,G,C]2 [E,G,C] |[K:treble] z [CE]2 [CEG] | z [A,D^F]2 [G,CE] | %54
 z [^F,B,D]2 [F,A,C] | z [G,B,]2 [G,B,] |[K:treble] z [B,DGB] z [B,DG] | z [G,B,D] z [B,D] | %58
 z [A,CD]2 [A,CD] | [B,D][A,CD] [B,D] z || z [Bdgb] z [Ac^fa] | z [GBeg] z [F_Adf] | %62
 z [EGce] z [DG=Bd] | z [CG]2 [CG] | z [A^fa] z [Aeg] | z [^FA^f] z [EAe] | z [DBd] z [CAc] | %67
 z [DGB]2 [DGB] | z [B,DGB] z [B,DG] | z [G,B,D] z [B,D] | z [A,CD]2 [A,CD] | %71
 [B,D][A,CD] [B,D] z |: z [A,D^F] z [A,DFA] | z [B,DG] z [B,DGB] | z [D^FA] z [DFAd] | %75
 [DGd][D^FAc] [DGB]2 | z/ A,/^C/=E/ G/C/E/G/ | z/ [A,^C]/=E/G/ z/ [B,C]/E/B/ | %78
 z/ [A,D]/F/A/ z/ [A,^C]/=E/A/ | z/ [A,DFA]/ z/ [A,^C=EA]/ z/ [A,D^FA]3/2 :: z [FAc] z [FAc] | %81
 z [FAc] z [FAc] | z [FBd] z [FBd] | z [FBd] z [FBd] | z [EGB] z [EGB] | z [EGB] z [EGB] | %86
 z [DGB] z [DGB] | z [DGB] z !fermata![DGB] | z [CDA]2 [CDA] | z [CDA]2 [CDA] | z [DGB] z [DAc] | %91
 [DGB][DAc] [DGB]2 :| %92
[K:bass]"^Accompianist: Apologies for no bass clef here, there is supposed to be one\nat this point. Play as you did at the beginning. \n" B,3 A, | %93
 B,3 A, | [^F,A,C]4 | [C,^F,]4 | [B,,G,]2[K:treble] d'/g'/b/d'/ | g/b/d/g/ B/d/G/ z/ | %98
[K:bass] [G,B,]3 A, | B,3 G, | [A,E]4 | [F,=B,]4 | [E,C]2[K:treble]!8va(! g'/c''/e'/g'/!8va)! | %103
 c'/e'/g/c'/ e/g/c/ z/ |[K:bass] [^F,A,C]4 | [^F,A,C]4 | [G,A,]4 | [E,G,A,]4 | %108
 [^F,A,]2[K:treble]!8va(! a'/d''/^f'/a'/ | d'/^f'/a/d'/!8va)! ^f/a/d/ z/ |[K:bass] [G,A,]4 | %111
 [G,A,]4 | [^F,A,]4 | [D,^F,]4 | [B,,D,G,]2[K:treble] d'/g'/b/d'/ | g/b/d/g/ B/d/G/ z/ || %116
[K:bass] (6:4:6[B,D]D,[B,D] D,[A,C]D, | (6:4:6[B,D]D,[B,D] D,[A,C]D, | %118
 (6:4:6[A,CE]^F,[A,CE] F,[A,D]F, | (6:4:6[^F,A,]C,[F,A,] C,[F,B,]C, | %120
 z[K:treble] d'/g'/ b/d'/g/b/ | d/g/B/d/ G z |[K:bass] (6:4:6[B,D]D,[B,D] D,[A,C]D, | %123
[K:treble] (6:4:6[B,D]G,[B,D] G,[B,E]G, | (6:4:6[CEG]A,[CEG] A,[CEF]A, | %125
 (6:4:6[=B,D]F,[B,D] F,[B,E]F, | z!8va(! g'/c''/ e'/g'/!8va)!c'/e'/ | g/c'/e/g/ c z | %128
 (6:4:6[A,E]^F,[A,E] F,[A,D]F, | (6:4:6[A,E]^F,[A,E] F,[A,D]F, | (6:4:6[A,D]G,[A,D] G,[A,C]G, | %131
 (6:4:6[G,A,]E,[G,A,] E,[G,B,]E, | z!8va(! a'/d''/ ^f'/a'/d'/f'/ | a/d'/!8va)!^f/a/ d z | %134
 (6:4:6[A,E]G,[A,E] G,[A,D]G, | (6:4:6[A,E]G,[A,E] G,[A,D]G, | (6:4:6[A,D]^F,[A,D] F,[A,C]F, | %137
 (6:4:6[^F,C]D,[F,C] D,[F,B,]D, | z d'/g'/ b/d'/g/b/ | d/g/B/d/ G z ||[K:bass] z [D,D]2 [D,D] | %141
 z [D,D]2 [G,D] | z [G,CE]2 [G,=B,D] | z [E,G,C]2 [E,G,C] |[K:treble] z [CE]2 [CEG] | %145
 z [A,D^F]2 [G,CE] |[K:bass] z [^F,B,D]2 [F,A,C] | z [G,B,]2 [G,B,] | %148
[K:treble] z [B,DGB] z [B,DG] | z [G,B,D] z [B,D] | z [A,CD]2 [A,CD] | [B,D][A,CD] [B,D] z | %152
 z [Bdgb] z [Ac^fa] | z [GBeg] z [F_Adf] | z [EGce] z [DG=Bd] | z [CG]2 [CG] | z [A^fa] z [Aeg] | %157
 z [^FA^f] z [EAe] | z [DBd] z [CAc] | z [DGB]2 [DGB] | z [B,B] z [G,G] | z [E,E] z[K:bass] [C,C] | %162
[K:treble] z [A,A] z [F,F] | z [D,D] z [D,D] |[K:treble] z [G,B,E]2 G | [EGAe] z [D^FAd] z | %166
 !fermata![G,B,DG]4 |][K:F] ^CG EC | A,G, E,^C, | z F2 F | z D2 D | DB GD | B,G, D,B,, | z D2 D | %174
 z ^C2 C | z D2 F, | z D2 B, | z A,2 F, | z A,2 C, | z G,2 G, | z ^C,2 C, | z D,2 D,- | D,2- D,2 :: %183
 z D2 D | z D2 =B, | z C z C | z C z C | z D2 D | z D2 =B, | z E z E | z C z C | z C2 C | %192
 z =B,2 B, | z ^C A,2 | z ^C A,2 | z F,2 F, | z ^G,2 G, | z E, ^C2 | z E, ^C2 :| ^CG EC | %200
 A,G, E,^C, | z F2 F | z D2 D | DB GD | B,G, D,B,, | z D2 D | z ^C2 C | z D2 F, | z D2 B, | %209
 z A,2 F, | z A,2 C, | z G,2 G, | z ^C,2 C, | z D,2 D,- | D,2- D,2 |[K:D] D,A, z D | z A, z F, | %217
 D,B, z E | z B, z G, | E,C z E | z C z A, | D2 A,D | CB, A,2 | B,2 A,G, | F,A, A,2 | A,A, z A, | %226
 A,A, z A, | z C, E,G, | F,A, F,2 | D2 CB, | A,G, F,2 | E2 DC | B,A, G,2 | G2 FE | DC B,2 | F2 ED | %236
 CD D2 | D2 DC | DA, A,2 | A,A, z A, | A,A, z A, | z C, E,A, | F,A, F,2 | F,2 E,D, | C,D, D,2 | %245
 D,2 D,C, | D,A, A,2 | A,C z E | A,F z F | CG EC | F, z A, z |:[K:F] ^CG EC | A,G, E,^C, | z F2 F | %254
 z D2 D | DB GD | B,G, D,B,, | z D2 D | z ^C2 C | z D2 F, | z D2 B, | z A,2 F, | z A,2 C, | %263
 z G,2 G, | z ^C,2 C, | z D,2 D,- | D,2- D,2 :: z D2 D | z D2 =B, | z C z C | z C z C | z D2 D | %272
 z D2 =B, | z E z E | z C z C | z C2 C | z =B,2 B, | z A, A,2 | z A, A,2 | z C2 C | z =B,2 B, | %281
 z ^C, A,2 | z ^C, A,2 :| ^CG EC | A,G, E,^C, | z F,2 F, | z F,2 F, | DB GD | B,G, D,B,, | %289
 z E,2 E, | z G,2 G, | z D2 F, | z D2 B, | z A,2 F, | z A,2 C, | z G,2 D, | z D,2 D, | z D,2 D, | %298
 z D,2 D, | A,2 A,/G,/A,/B,/ | F2 E2 | F, ^G,2 F | D=B, ^G,F, | .[D,F,] z z2 |][K:F] z |: z D z C | %306
 z D2 D | z C2 A, | z A, z A, | z B,2 E, |1 z C,2 F, :|2 z F,2 A, || .D/.E/.F z .E/.F/ | %313
 .G z/ .F/ F/E/E/D/ | E2 A.A, | .D/.E/.F z .E/.F/ | .G z/ .F/ F/E/E/A,/ | D2 F,.A, | %318
 .D/.E/.F z .E/.F/ | .G z/ F/ F/E/E/D/ | E2 A.A, | .D/.E/.F z .E/.F/ | .G z/ F/ F/E/E/A,/ | %323
 D2 C2 |: z D z C | z D2 D | z C2 A, | z A, z A, | z B,2 E, |1 z A,2 A, :|2 z A,2 .A,, || %331
 .D,/.E,/.F, z .E,/.F,/ | .G, z/ .F,/ F,/E,/E,/D,/ | E,2 A,.A,, | .D,/.E,/.F, z .E,/.F,/ | %335
 .G, z/ .F,/ F,/E,/E,/A,,/ | D,2 D,.A,, | .D,/.E,/.F, z .E,/.F,/ | .G, z/ .F,/ F,/E,/E,/D,/ | %339
 E,2 A,.A,, | .D,/.E,/.F, z .E,/.F,/ | .G, z/ .F,/ F,/E,/E,/A,,/ | D,2 A,,2 |[K:D] A, F2 .G | %344
 F2 G2 | F4 | .D F2 .G | F2 E2 | F4 | .D F2 .G | F2 F2 | F4 | .D F2 .G | F2 E2 | F2 z .A, | %355
[K:F] .D/.E/.F z .E/.F/ | .G z/ .F/ F/E/E/D/ | E2 A.A, | .D/.E/.F z .E/.F/ | .G z/ .F/ F/E/E/A,/ | %360
 D2 F,.A, |!f! .D/.E/.F z .E/.F/ | .G z/ .F/ F/E/E/D/ | E2 A.A, | .D/.E/.F z .E/.F/ | %365
 .G z/ .F/ F/E/E/A,/ | F,2 G,2 |!f! z .F, .F,/.F/.C/.A,/ | .B, F2 D | .C F,2 F, | %370
 z .A, .C,/.C/.A,/.F,/ | .C, B,2 E, | .C, A,2 A, | z .F, .F,/.F/.C/.A,/ | .B, F2 D | .C F2 A, | %376
 z .A, .C,/.C/.A,/.F,/ | .C, B,2 E, | .F, z C z |][K:Bb] z2 z | z [B,DG] [B,DG][B,DG] | %381
 z [B,DG] [B,DG][B,DG] | z [B,EA] [B,EA][B,EA] | z [B,EA] [B,EA][B,EA] | z [CD^F] [CDF][CDF] | %385
 z [CD^F] [CDF][CDF] | z [B,DG] [B,DG][B,DG] | z [B,DG] [B,DG][B,DG] | z [B,DG] [B,DG][B,DG] | z4 | %390
 z [B,EA] [B,EA][B,EA] | z [B,EA] [B,EA][B,EA] | z [B,DG] [B,DG][B,DG] | z [CD^F] [CDF][CDF] | %394
 z [B,DG] [B,DG][B,DG] | z4 | z [Bdg] [Bdg][Bdg] | z [Bdg] [Bdg][Bdg] | z [Bea] [Bea][Bea] | %399
 z [Bea] [Bea][Bea] | z [cd^f] [cdf][cdf] | z [cd^f] [cdf][cdf] | z [Bdg] [Bdg][Bdg] | %403
 z [Bdg] [Bdg][Bdg] | z [Bdg] [Bdg][Bdg] | z4 | z [Bea] [Bea][Bea] | z [Bea] [Bea][Bea] | %408
 z [Bdg] [Bdg][Bdg] | z [cd^f] [cdf][cdf] | z [Bdg] [Bdg][Bdg] | dB GD |: z C2 C | z F z F | %414
 z F2 F | z F z F | z D2 D | z E z D | z C2 E | z E z E | z F2 F | z F z F | z F2 F | z F z D | %424
 z C2 C | z B, z C | z B,2 B, |1 z D z B, :|2 z4 || z4 | B/G/B/G/ B/G/B/G/ | d/B/d/B/ d/B/d/B/ | %432
 c/B/c/B/ c/B/c/B/ | f/A/e/A/ c/F/A/F/ | A/E/c/A/ e/c/-c- | cg/A/ ^f/A/e/A/ | B/G/^c/G/ d/G/-G- | %437
 Gd/G/ c/G/B/G/ | A/D/G/D/ B/G/d/B/ | g/B/d/B/ c/A/B/G/ | B/E/A/E/ c/A/e/c/ | a/f/g/e/ f/d/e/c/ | %442
 d^c/d/ B/d/G/d/ | ^F^c/d/ =c/d/A/d/ | GD/B,/ G/D/B/D/ | G z z2 |][K:G] z4 | z4 |: (3z B,D G,2 | %449
 (3z B,D G,2 | (3z B,E G,2 | (3z B,D G,2 | (3z B,D F,2 |1 (3z B,D G,2 :|2 (3z B,D G,2 || %455
 (3z EG C2 | (3z G,D F,2 | (3z B,D G,2 | (3z ^DB E2 | (3z FB ^D2 | (3z GB E2 | (3z EG C2 | %462
 (3z B,D F,2 | (3z B,D G,2 | (3z ^D,B, E,2 | (3z F,B, ^D,2 | (3z G,B, E,D, |: (3z B,D G,2 | %468
 (3z B,D G,2 | (3z CE G,2 | (3z B,D G,2 | (3z A,D F,2 |1 (3z B,D G,2 :|2 (3z B,D G,2 || (3z EG C2 | %475
 (3z B,D F,2 | (3z B,D G,2 | (3z ^D,B, E,2 | (3z F,B, ^D,2 | (3z G,B, E,2 | (3z EG C2 | %481
 (3z B,D F,2 | (3z B,D G,2 | (3z ^D,B, E,2 | (3z F,B, ^D,2 | (3z G,B, E,D, | (3z B,D G,2 | %487
 (3z B,D G,2 | z D G,2 | z B, D,2- | D,2 D,2- | D,2 D,2- | D, z z2 ||[K:Bb] z2 z .[DB] | %494
 z2 z .[DB] | z2 z .[Ec] | z2 z .[DB] | z2 z .[Ec] | z2 z .[DB] | z2 z .[d^f] | z2 z .[DB] | %501
 z2 z .[DB] | z2 z .[DB] | z2 z .[Ec] | z2 z .[DB] | z .[gg']/ z z/ .[ff']/ z/ | %506
 z .[ee']/ z z/ .[dd']/ z/ | .[cc']/ z/ .[Bb]/ z/ z2 | z2 .[gg'] z | z2 z .[DB] | z2 z .[DB] | %511
 z2 z .[Ec] | z2 z .[DB] | z2 z .[Ec] | z2 z .[DB] | z4 | z2 z .[DB] | z2 z .[DB] | z2 z .[DB] | %519
 z2 z .[Ec] | z2 z .[DB] | z .[gg']/ z z/ .[ff']/ z/ | z .[ee']/ z z/ .[dd']/ z/ | %523
 .[cc']/ z/ .[Bb]/ z/ z2 | z2 .[gg'] z |: z .[G=Bf] z .[GBf] | z .[G=Bg] z .[GBf] | %527
 z .[Gce] z .[Gce] | z .[Gce] z .[Gce] | z .[FAe] z .[FAe] | z [FAf] z [FAe] | z [FBd] z [FBd] | %532
 z .[Dc] z .[DB] | z4 | z4 | z4 | z4 | D z z [D,D] | .[=E,=E] z .[^F,^F] z | z4 | z3 z :: %541
[K:G] ([GB].[DBd]).[DBd].[DBd] | [DBd][CAc][B,GB].[CAc] | [DGB]2 [DGB]2 | %544
 ([GB].[DBd]).[DBd].[DBd] | [DBd][CAc][B,GB].[CAc] | [DGB]2 [DGB]2 :: z [B,DG] z [CEG] | %548
 z [B,DG] z [A,DF] | .[B,G].[B,G].[B,A].[B,A] | [DBd][GBg] [DBd]2 | z [B,DG] z [CEG] | %552
 z [B,DG] z [A,DF] | .[DB].[CA].[B,G].[A,F] | ([GBd][gbd'] [GBd]2) :|[K:Bb] z2 z .[DB] | %556
 z2 z .[DB] | z2 z .[Ec] | z2 z .[DB] | z2 z .[Ec] | z2 z .[DB] | z2 z .[d^f] | z2 z .[DB] | %563
 z2 z .[DB] | z2 z .[DB] | z2 z .[Ec] | z2 z .[DB] | z .[gg']/ z z/ .[ff']/ z/ | %568
 z .[ee']/ z z/ .[dd']/ z/ | .[cc']/ z/ .[Bb]/ z/ z2 | z2 .[gg'] z | z2 z .[DB] | z2 z .[DB] | %573
 z2 z .[Ec] | z2 z .[DB] | z2 z .[Ec] | z2 z .[DB] | z4 | z2 z .[DB] | z2 z .[DB] | z2 z .[DB] | %581
 z2 z .[Ec] | z2 z .[DB] | z .[gg']/ z z/ .[ff']/ z/ | z .[ee']/ z z/ .[dd']/ z/ | %585
 .[cc']/ z/ .[Bb]/ z/ z2 | z2 .[gg'] z | z .[G=Bf] z .[GBf] | z .[G=Bg] z .[GBf] | %589
 z .[Gce] z .[Gce] | z .[Gce] z .[Gce] | z .[FAe] z .[FAe] | z [FAf] z [FAe] | z [FBd] z [FBd] | %594
 z .[Dc] z .[DB] | z4 | z4 | z4 | z4 | D z z [D,D] | .[=E,=E] z .[^F,^F] z | z4 | z3 z | %603
 .[gae'g'] z .[d^fad'] z | [GBdg]3 z |][K:Eb] [EGBe] z z2 |[K:bass] z [G,B,][^F,=A,][G,B,] | %607
 z [_A,C]2 [G,B,] | z [B,E]2 [G,B,] | z [F,B,D]2 [F,A,C] | z [A,C][G,=B,][A,C] | %611
 z [F,_B,D]2 [A,C] | z [G,B,]2 [F,A,B,] | z [A,C]2 [G,B,] | z [G,B,][^F,=A,][G,B,] | %615
 z [_A,C]2 [G,B,] | z [G,B,E]2 [G,B,] |[K:treble] z [B,FA]z[B,FA] | z [B,EG] z [B,EG] | %619
 z [CFA] z [B,DA] | z [B,EG] z [B,E] | z [B,FA] z [B,FA] | z [B,EG] z [B,E] | [CFA] z z2 | %624
[K:bass] z2 [A,B,]2 | [G,B,][A,B,] [G,B,] z ::[K:bass] z[K:treble] [GBeg] z [^F=A] | %627
 z [EGc] z [EGB] | z [GBeg] z [^F=A] | z [EGc] z [EGB] | z [Af] [G=e][Af] | [Bg]2 (3ede | %632
 [=Af][Ge] [Fd][Ec]- | [Ec]2 [DB]2 | z[K:treble] [GBeg] z [^F=A] | z [EGc] z [EGB] | %636
 z [GBeg] z [^F=A] | z [EGc] z [EGB] | z [B,FA]z[B,FA] | z [B,EG] z [B,EG] | z [CFA] z [B,DA] | %641
 z [B,EG] z [B,E] | z [B,FA] z [B,FA] | z [B,EG] z [B,E] | [CFA] z z2 |[K:bass] z2 [A,B,]2 | %646
 [G,B,][A,B,] [G,B,] z ::[K:Gb][K:bass] z [G,B,EG] z [B,EGB] | z [=DFB=d] [FBf][B,DFB] | %649
 z [B,EGB] z[K:bass] [=A,CE] | [B,=D]B,/D/ F/D/B,/F,/ | z [=D,F,B,=D] z [F,B,F] | %652
 z [A,B,=D] [G,B,E][F,B,F] | z [G,CE] z [F,=A,=CE] | z [F,B,=D] z2 :: z2 [B,D]G | z2 [CD]A | %657
 z2 [F,A,]D | z2 [B,D]G |[K:treble] [Ac][Af] [GB][Ge] | [FA][F=d] [EG][Ec] | [EG][GB] [=DF][FA] |1 %662
[K:bass] [B,EG][B,FA] [B,EG] z :|2 [B,EG][B,FA] [B,EG] z ||[K:Eb][K:treble] [EGBe] z z2 | %665
[K:bass] z [G,B,][^F,=A,][G,B,] | z [_A,C]2 [G,B,] | z [B,E]2 [G,B,] | z [F,B,D]2 [F,A,C] | %669
 z [A,C][G,=B,][A,C] | z [F,_B,D]2 [A,C] | z [G,B,]2 [F,A,B,] | z [A,C]2 [G,B,] | %673
 z [G,B,][^F,=A,][G,B,] | z [_A,C]2 [G,B,] | z [G,B,E]2 [G,B,] |[K:treble] z [B,FA]z[B,FA] | %677
 z [B,EG] z [B,EG] | z [CFA] z [B,DA] | z [B,EG] z [B,E] | z [B,FA] z [B,FA] | z [B,EG] z [B,E] | %682
 [CFA] z z2 |[K:bass] z2 [A,B,]2 | [G,B,][A,B,] [G,B,] z | [EGBe] z z2 | %686
[K:bass] z [G,B,][^F,=A,][G,B,] | z [_A,C]2 [G,B,] | z [B,E]2 [G,B,] | z [F,B,D]2 [F,A,C] | %690
 z [A,C][G,=B,][A,C] | z [F,_B,D]2 [A,C] | z [G,B,]2 [F,A,B,] | z [A,C]2 [G,B,] | %694
 z [G,B,][^F,=A,][G,B,] | z [_A,C]2 [G,B,] | z [G,B,E]2 [G,B,] |[K:treble] z [B,FA]z[B,FA] | %698
 z [B,EG] z [B,EG] | z [CFA] z [B,DA] | z [B,EG] z [B,E] | z [B,FA] z [B,FA] | z [B,EG] z [B,E] | %703
 [CFA] z z2 |[K:bass] z2 [A,B,]2 | [G,B,][A,B,] [G,B,] z | z[K:treble] [GBeg] z [^F=A] | %707
 z [EGc] z [EGB] | z [GBeg] z [^F=A] | z [EGc] z [EGB] | z [Af] [G=e][Af] | [Bg]2 (3ede | %712
 [=Af][Ge] [Fd][Ec]- | [Ec]2 [DB]2 | z[K:treble] [GBeg] z [^F=A] | z [EGc] z [EGB] | %716
 z [GBeg] z [^F=A] | z [EGc] z [EGB] | z [B,FA]z[B,FA] | z [B,EG] z [B,EG] | z [CFA] z [B,DA] | %721
 z [B,EG] z [B,E] | z [B,FA] z [B,FA] | z [B,EG] z [B,E] | [CFA] z z2 |[K:bass] z2 [A,B,]2 | %726
 [G,B,][A,B,] [G,B,] z | [efc'] z [dfb] z | [egbe'] z z2 |] %729
V:3
 G,4 | G,4 | x4 | x4 | x2[K:treble] x2 | x4 |[K:bass] x4 | x4 | x4 | x4 | %10
 x2[K:treble]!8va(! x2!8va)! | x4 |[K:bass] x4 | x4 | x4 | x4 | x2[K:treble]!8va(! x2 | %17
 x2!8va)! x2 |[K:bass] x4 | x4 | x4 | x4 | x2[K:treble] x2 | x4 || x4 | x4 | x4 | x4 | %28
 x[K:treble] x3 | x4 |[K:bass] x4 | x4 | x4 | x4 | x!8va(! x2!8va)! x | x4 | x4 | x4 | x4 | x4 | %40
 x!8va(! x3 | x!8va)! x3 | x4 | x4 | x4 | x4 | x4 | x4 ||[K:bass] x4 | x4 | x4 | x4 | %52
[K:treble] x4 | x4 | x4 | x4 |[K:treble] x4 | x4 | x4 | x4 || x4 | x4 | x4 | x4 | x4 | x4 | x4 | %67
 x4 | x4 | x4 | x4 | x4 |: x4 | x4 | x4 | x4 | x4 | x4 | x4 | x4 :: x4 | x4 | x4 | x4 | x4 | x4 | %86
 x4 | x4 | x4 | x4 | x4 | x4 :|[K:bass] G,4 | G,4 | x4 | x4 | x2[K:treble] x2 | x4 |[K:bass] x4 | %99
 x4 | x4 | x4 | x2[K:treble]!8va(! x2!8va)! | x4 |[K:bass] x4 | x4 | x4 | x4 | %108
 x2[K:treble]!8va(! x2 | x2!8va)! x2 |[K:bass] x4 | x4 | x4 | x4 | x2[K:treble] x2 | x4 || %116
[K:bass] x4 | x4 | x4 | x4 | x[K:treble] x3 | x4 |[K:bass] x4 |[K:treble] x4 | x4 | x4 | %126
 x!8va(! x2!8va)! x | x4 | x4 | x4 | x4 | x4 | x!8va(! x3 | x!8va)! x3 | x4 | x4 | x4 | x4 | x4 | %139
 x4 ||[K:bass] x4 | x4 | x4 | x4 |[K:treble] x4 | x4 |[K:bass] x4 | x4 |[K:treble] x4 | x4 | x4 | %151
 x4 | x4 | x4 | x4 | x4 | x4 | x4 | x4 | x4 | x4 | x3[K:bass] x |[K:treble] x4 | x4 | %164
[K:treble] x4 | x4 | x4 |][K:F] x4 | x4 | x4 | x4 | x4 | x4 | x4 | x4 | x4 | x4 | x4 | x4 | x4 | %180
 x4 | x4 | x4 :: x4 | x4 | x4 | x4 | x4 | x4 | x4 | x4 | x4 | x4 | x4 | x4 | x4 | x4 | x4 | x4 :| %199
 x4 | x4 | x4 | x4 | x4 | x4 | x4 | x4 | x4 | x4 | x4 | x4 | x4 | x4 | x4 | x4 |[K:D] x4 | x4 | %217
 x4 | x4 | x4 | x4 | x4 | x4 | x4 | x4 | x4 | x4 | x4 | x4 | x4 | x4 | x4 | x4 | x4 | x4 | x4 | %236
 x4 | x4 | x4 | x4 | x4 | x4 | x4 | x4 | x4 | x4 | x4 | x4 | x4 | x4 | x4 |:[K:F] x4 | x4 | x4 | %254
 x4 | x4 | x4 | x4 | x4 | x4 | x4 | x4 | x4 | x4 | x4 | x4 | x4 :: x4 | x4 | x4 | x4 | x4 | x4 | %273
 x4 | x4 | x4 | x4 | x4 | x4 | x4 | x4 | x4 | x4 :| x4 | x4 | x4 | x4 | x4 | x4 | x4 | x4 | x4 | %292
 x4 | x4 | x4 | x4 | x4 | x4 | x4 | x4 | x4 | x4 | x4 | x4 |][K:F] x |: x4 | x4 | x4 | x4 | x4 |1 %310
 x4 :|2 x4 || x4 | x4 | x4 | x4 | x4 | x4 | x4 | x4 | x4 | x4 | x4 | x4 |: x4 | x4 | x4 | x4 | %328
 x4 |1 x4 :|2 x4 || x4 | x4 | x4 | x4 | x4 | x4 | x4 | x4 | x4 | x4 | x4 | x4 |[K:D] x4 | x4 | x4 | %346
 x4 | x4 | x4 | x4 | x4 | x4 | x4 | x4 | x4 |[K:F] x4 | x4 | x4 | x4 | x4 | x4 | x4 | x4 | x4 | %364
 x4 | x4 | x4 | x4 | x4 | x4 | x4 | x4 | x4 | x4 | x4 | x4 | x4 | x4 | x4 |][K:Bb] x3 | x4 | x4 | %382
 x4 | x4 | x4 | x4 | x4 | x4 | x4 | x4 | x4 | x4 | x4 | x4 | x4 | x4 | x4 | x4 | x4 | x4 | x4 | %401
 x4 | x4 | x4 | x4 | x4 | x4 | x4 | x4 | x4 | x4 | x4 |: x4 | x4 | x4 | x4 | x4 | x4 | x4 | x4 | %420
 x4 | x4 | x4 | x4 | x4 | x4 | x4 |1 x4 :|2 x4 || x4 | x4 | x4 | x4 | x4 | x4 | x4 | x4 | x4 | x4 | %439
 x4 | x4 | x4 | x4 | x4 | x4 | x4 |][K:G] x4 | x4 |: x4 | x4 | x4 | x4 | x4 |1 x4 :|2 x4 || x4 | %456
 x4 | x4 | x4 | x4 | x4 | x4 | x4 | x4 | x4 | x4 | x4 |: x4 | x4 | x4 | x4 | x4 |1 x4 :|2 x4 || %474
 x4 | x4 | x4 | x4 | x4 | x4 | x4 | x4 | x4 | x4 | x4 | x4 | x4 | x4 | x4 | x4 | x4 | x4 | x4 || %493
[K:Bb] x4 | x4 | x4 | x4 | x4 | x4 | x4 | x4 | x4 | x4 | x4 | x4 | x4 | x4 | x4 | x4 | x4 | x4 | %511
 x4 | x4 | x4 | x4 | x4 | x4 | x4 | x4 | x4 | x4 | x4 | x4 | x4 | x4 |: x4 | x4 | x4 | x4 | x4 | %530
 x4 | x4 | x4 | x4 | x4 | x4 | x4 | x4 | x4 | x4 | x4 ::[K:G] x4 | x4 | x4 | x4 | x4 | x4 :: x4 | %548
 x4 | x4 | x4 | x4 | x4 | x4 | x4 :|[K:Bb] x4 | x4 | x4 | x4 | x4 | x4 | x4 | x4 | x4 | x4 | x4 | %566
 x4 | x4 | x4 | x4 | x4 | x4 | x4 | x4 | x4 | x4 | x4 | x4 | x4 | x4 | x4 | x4 | x4 | x4 | x4 | %585
 x4 | x4 | x4 | x4 | x4 | x4 | x4 | x4 | x4 | x4 | x4 | x4 | x4 | x4 | x4 | x4 | x4 | x4 | x4 | %604
 x4 |][K:Eb] x4 |[K:bass] x4 | x4 | x4 | x4 | x4 | x4 | x4 | x4 | x4 | x4 | x4 |[K:treble] x4 | %618
 x4 | x4 | x4 | x4 | x4 | x4 |[K:bass] x4 | x4 ::[K:bass] x[K:treble] x3 | x4 | x4 | x4 | x4 | %631
 z2 G2 | x4 | x4 | x[K:treble] x3 | x4 | x4 | x4 | x4 | x4 | x4 | x4 | x4 | x4 | x4 |[K:bass] x4 | %646
 x4 ::[K:Gb][K:bass] x4 | x4 | x3[K:bass] x | x4 | x4 | x4 | x4 | x4 :: x4 | x4 | x4 | x4 | %659
[K:treble] x4 | x4 | x4 |1[K:bass] x4 :|2 x4 ||[K:Eb][K:treble] x4 |[K:bass] x4 | x4 | x4 | x4 | %669
 x4 | x4 | x4 | x4 | x4 | x4 | x4 |[K:treble] x4 | x4 | x4 | x4 | x4 | x4 | x4 |[K:bass] x4 | x4 | %685
 x4 |[K:bass] x4 | x4 | x4 | x4 | x4 | x4 | x4 | x4 | x4 | x4 | x4 |[K:treble] x4 | x4 | x4 | x4 | %701
 x4 | x4 | x4 |[K:bass] x4 | x4 | x[K:treble] x3 | x4 | x4 | x4 | x4 | z2 G2 | x4 | x4 | %714
 x[K:treble] x3 | x4 | x4 | x4 | x4 | x4 | x4 | x4 | x4 | x4 | x4 |[K:bass] x4 | x4 | x4 | x4 |] %729
V:4
 G,,, G,,2 G,, | G,,, G,,2 G,, | G,,, G,,2 G,, | G,,, G,,2 G,, | G,,, G,,2 G,, | G,,, G,,2 G,, | %6
 G,,, G,,2 G,, | G,,, G,,2 G,, | F,,, F,,2 F,, | G,,, G,,2 G,, | C,, C,2 C, | C,, C,2 C, | %12
 D,, D,2 D, | D,, D,2 D, | D,, D,2 D, | D,, D,2 D, | D,, D,2 D, | D,, D,2 D, | C,, C,2 C, | %19
 C,, C,2 C, | D,, D,2 D, | D,,, D,,2 D,, | G,,, G,,2 G,, | G,,, G,,2 G,, || G,,, G,,2 G,, | %25
 G,,, G,,2 G,, | G,,, G,,2 G,, | G,,, G,,2 G,, | G,,, B,,2 B,, | G,,, B,,2 B,, | G,,, G,,2 G,, | %31
 G,,, G,,2 G,, | F,,, F,,2 F,, | G,,, G,,2 G,, | C,, [G,,E,]2 [G,,E,] | C,, [G,,E,]2 [G,,E,] | %36
 D,, D,2 D, | D,, D,2 D, | E,, E,2 E, | C,, C,2 C, | D,, [A,,^F,]2 [A,,F,] | %41
 D,, [A,,^F,]2 [A,,F,] | C,, C,2 C, | C,, C,2 C, | D,, D,2 D, | D,,, D,,2 D,, | G,,, B,,2 B,, | %47
 G,,, B,,2 B,, || [G,,,G,,] z z2 | [G,,,G,,] z z2 | [G,,,G,,] z z2 | [C,,C,] z z2 | %52
 [A,,,A,,] z z2 | [C,,C,] z z2 | [D,,D,] z z2 | [G,,,G,,] z z2 | [G,,,G,,] z [B,,,B,,] z | %57
 [D,,D,] z [G,,G,] z | [D,,D,] z z2 | [G,,D,][D,,D,] [G,,D,] z || G,,2 A,,2 | B,,2 =B,,2 | %62
 C,2 F,2 | C,, [C,E,]2 [C,E,] | A,,2 C,2 | E,2 G,2 | ^F,2 A,2 | G,, [G,B,]2 [G,B,] | %68
 [G,,,G,,] z [B,,,B,,] z | [D,,D,] z [G,,G,] z | [D,,D,] z z2 | [G,,D,][D,,D,] [G,,D,] z |: %72
 D,, z z2 | D,, z z2 | [D,,,D,,]2 [D,,D,] z/ [C,,C,]/ | [B,,,B,,]D,, G,,D,, | %76
 [A,,,A,,] z [A,,A,] z | [=E,,=E,] z [G,,,G,,] z | [F,,,F,,] z [A,,,A,,] z | %79
 [D,,D,][A,,,A,,] [D,,D,]2 :: F,,2 A,,2 | C,2 F,2 | B,,2 D,2 | F,2 B,2 | E,,2 G,,2 | B,,2 E,2 | %86
 G,, z B,, z | D, z G, z | [D,,,D,,] z z2 | [D,,D,] z z2 | [G,,,G,,] z [D,,D,] z | %91
 [G,,D,][D,,D,] [G,,D,]2 :| G,,, G,,2 G,, | G,,, G,,2 G,, | G,,, G,,2 G,, | G,,, G,,2 G,, | %96
 G,,, G,,2 G,, | G,,, G,,2 G,, | G,,, G,,2 G,, | G,,, G,,2 G,, | F,,, F,,2 F,, | G,,, G,,2 G,, | %102
 C,, C,2 C, | C,, C,2 C, | D,, D,2 D, | D,, D,2 D, | D,, D,2 D, | D,, D,2 D, | D,, D,2 D, | %109
 D,, D,2 D, | C,, C,2 C, | C,, C,2 C, | D,, D,2 D, | D,,, D,,2 D,, | G,,, G,,2 G,, | %115
 G,,, G,,2 G,, || G,,, G,,2 G,, | G,,, G,,2 G,, | G,,, G,,2 G,, | G,,, G,,2 G,, | G,,, B,,2 B,, | %121
 G,,, B,,2 B,, | G,,, G,,2 G,, | G,,, G,,2 G,, | F,,, F,,2 F,, | G,,, G,,2 G,, | %126
 C,, [G,,E,]2 [G,,E,] | C,, [G,,E,]2 [G,,E,] | D,, D,2 D, | D,, D,2 D, | E,, E,2 E, | C,, C,2 C, | %132
 D,, [A,,^F,]2 [A,,F,] | D,, [A,,^F,]2 [A,,F,] | C,, C,2 C, | C,, C,2 C, | D,, D,2 D, | %137
 D,,, D,,2 D,, | G,,, B,,2 B,, | G,,, B,,2 B,, || [G,,,G,,] z z2 | [G,,,G,,] z z2 | %142
 [G,,,G,,] z z2 | [C,,C,] z z2 | [A,,,A,,] z z2 | [C,,C,] z z2 | [D,,D,] z z2 | [G,,,G,,] z z2 | %148
 [G,,,G,,] z [B,,,B,,] z | [D,,D,] z [G,,G,] z | [D,,D,] z z2 | [G,,D,][D,,D,] [G,,D,] z | %152
 G,,2 A,,2 | B,,2 =B,,2 | C,2 F,2 | C,, [C,E,]2 [C,E,] | A,,2 C,2 | E,2 G,2 | ^F,2 A,2 | %159
 G,, [G,B,]2 [G,B,] | [G,,G,]/ z/ z [E,,E,]/ z/ z | [C,,C,]/ z/ z [A,,,A,,]/ z/ z | %162
 [F,,,F,,]/ z/ z [D,,,D,,]/ z/ z | B,,,/ z/ z [G,,,G,,]/ z/ z | [E,,,E,,]3 [D,,,D,,] | %165
 C,, z D,, z | !fermata![G,,,G,,]4 |][K:F] A,,G, E,^C, | A,G, E,^C, | D,4 | F,,2 z2 | B,,B, G,D, | %172
 B,G, D,B,, | E,4 | A,,4 | B,,4 | G,,4 | A,,4 | F,,4 | G,,4 | A,,4 | D,,4 | D,,4 :: D,4 | %184
 =B,,2 E,2 | A,,2 C,2 | E,,2 A,,2 | D,4 | =B,,2 E,2 | A,,2 =B,,2 | C,2 E,2 | ^D,4 | D,2 D,,2 | %193
 A,,4 | A,,4 | F,,4 | F,,2 D,,2 | A,,4 | A,,4 :| A,,G, E,^C, | A,G, E,^C, | D,4 | F,,4 | %203
 B,,B, G,D, | B,G, D,B,, | E,4 | A,,4 | B,,4 | G,,4 | A,,4 | F,,4 | G,,4 | A,,4 | D,,4 | D,,4 | %215
[K:D] .D,,.D, z .F, | z .D, z .D,, | .G,,.G, z .G, | z .D, z .G,, | .A,,.A, z .G, | z .E, z .A,, | %221
 D,2 C,B,, | A,,G,, F,,2 | .G,2 .F,.E, | .D,.C, .B,,2 | .A,,.A, z .C, | .A,,.A, z .F, | %227
 .A,,.A, .A,,.A, | .D, z .D, z | .D,,.D, z .D, | z .A,, z .D,, | .G,,.G, z .E, | z .B,, z .G,, | %233
 .A,,.A, z .G, | z .E, z .A,, | D,2 C,B,, | A,,G,, F,,2 | .G,2 .F,.E, | .D,.C, .B,,2 | %239
 .A,,.A, z .C | .A,,.A, z .F, | .A,,.A, .A,,.A, | .D, z .D, z | D,2 C,B,, | A,,G,, F,,2 | %245
 .G,2 .F,.E, | .D,.C, .B,,2 | .A,,.A, z .C | .A,,.A, z .D | .A,,.A, .A,,.A, | .D,, z .D, z |: %251
[K:F] A,,G, E,^C, | A,G, E,^C, | D,4 | F,,2 z2 | B,,B, G,D, | B,G, D,B,, | E,4 | A,,4 | B,,4 | %260
 G,,4 | A,,4 | F,,4 | G,,4 | A,,4 | D,,4 | D,,4 :: D,4 | =B,,2 E,2 | A,,2 C,2 | E,,2 A,,2 | D,4 | %272
 =B,,2 E,2 | A,,2 =B,,2 | C,2 E,2 | ^D,4 | D,2 D,,2 | A,,4 | A,,4 | C,4 | =B,,2 D,,2 | A,,4 | %282
 A,,4 :| A,,G, E,^C, | A,G, E,^C, | D,4 | F,,4 | B,,B, G,D, | B,G, D,B,, | E,4 | A,,4 | B,,4 | %292
 G,,4 | A,,4 | F,,4 | G,,4 | B,,4 | ^G,,4 | =B,,4 | A,, A,,2 A,,- | A,, A,,2 A,, | D,, z z F, | %302
 D,=B,, ^G,,F,, | .[D,,A,,] z z2 |][K:F] z |: F,, z F,, z | B,, z z2 | F,, z z2 | F,, z F,, z | %309
 C,, z z2 |1 F,, z z2 :|2 F,, z z A,, || .D,, D,,2 .D,, | .D,, D,,2 .D,, | .D,, D,,2 D,,- | %315
 D,, D,,2 D,,- | D,, D,,2 D,,- | D,, D,,2 .A,, | .A,, A,,2 .A,, | .A,, A,,2 .A,, | A,, B,,2 A,,- | %321
 A,, ^G,,2 A,,- | A,, A,,2 A,, | A,,2 C,2 |: F,, z F,, z | B,, z z2 | F,, z z2 | F,, z F,, z | %328
 C,, z z2 |1 F,, z z2 :|2 F,, z z A,, || .D,,/.E,,/.F,, z .E,,/.F,,/ | %332
 .G,, z/ .F,,/ F,,/E,,/E,,/D,,/ | E,,2 A,,.A,, | .D,,/.E,,/.F,, z .E,,/.F,,/ | %335
 .G,, z/ .F,,/ F,,/E,,/E,,/A,,/ | D,,2 D,,.A,, | .D,,/.E,,/.F,, z .E,,/.F,,/ | %338
 .G,, z/ .F,,/ F,,/E,,/E,,/D,,/ | E,,2 A,,.A,, | .D,,/.E,,/.F,, z .E,,/.F,,/ | %341
 .G,, z/ .F,,/ F,,/E,,/E,,/A,,/ | D,,2 A,,2 |[K:D] .D,, D,2 .G,, | D,2 G,,2 | D,4 | .D,, D,2 .G,, | %347
 D,2 A,,2 | A,,4 | .D,, D,2 .G,, | D,2 B,,2 | D,4 | .D,, D,2 .G,, | D,2 A,,2 | A,,4 |[K:F] A,,4 | %356
 A,,4 | A,,B,, B,,A,, | A,,^G,, G,,A,, | A,,4 | A,,B,, A,,^G,, | A,,4 | A,,B,, B,,^G,, | %363
 A,,2 A,,2 | (3A,,2 ^G,,2 A,,2 | (3A,,2 B,,2 A,,2 | D,2 E,2 |!f! F,, z F,, z | B,, z z2 | %369
 F,, z z2 | F,, z F,, z | C,, z z2 | F,, z z2 | F,, z F,, z | B,, z D, z | F,, z z2 | F,, z F,, z | %377
 C,, z z2 | .F,, z F, z |][K:Bb] z2 z | !///-!G,,,2 D,,2 | !///-!B,,,2 B,,2 | !///-!C,,2 A,,2 | %383
 !///-!C,,2 A,,2 | !///-!D,,,2 D,,2 | !///-!D,,,2 D,,2 | !///-!G,,,2 D,,2 | !///-!G,,,2 D,,2 | %388
 !///-!G,,,2 D,,2 | G,,, z z2 | !///-!C,,2 A,,2 | A,,, z z2 | !///-!G,,,2 D,,2 | !///-!D,,,2 D,,2 | %394
 !///-!G,,,2 D,,2 | G,,, z z2 | !///-!G,,2 D,2 | !///-!B,,2 B,2 | !///-!C,2 A,2 | !///-!C,2 A,2 | %400
 !///-!D,,2 D,2 | !///-!D,,2 D,2 | !///-!G,,2 D,2 | !///-!G,,2 D,2 | !///-!G,,2 D,2 | G,, z z2 | %406
 !///-!C,2 A,2 | A,, z z2 | !///-!G,,2 D,2 | !///-!D,,2 D,2 | !///-!G,,2 D,2 | G,, z z2 |: F,,4 | %413
 .=E,2 ._E,2 | D,4 | .B,,2 ._A,,2 | G,,4 | .A,,2 .=B,,2 | C,4 | .E,2 .C,2 | F,,4 | .G,,2 .A,,2 | %422
 B,,4 | .D,2 .B,,2 | A,,4 | .D,2 .D,,2 | G,,4 |1 .B,,2 .G,,2 :|2 .B,,2 .G,,2 || z4 | G,, G,2 G, | %431
 B,, F,2 F, | E,, E,2 E, | F,, F,,2 F,, | E,, E,2 E, | D,, D,2 D, | G,, G,2 G, | G,, G,2 G, | %438
 B,, B,2 B, | G,, G,2 G, | C, C2 C | A,, A,2 A, | D, D2 D | D,, D,2 D, | G,, G,2 G, | G,, z z2 |] %446
[K:G] z4 | z4 |: G,,2 (3z B,B,, | G,,2 (3z B,B,, | G,,2 (3z CC, | G,,2 (3z B,B,, | %452
 F,,2 (3z D,D,, |1 G,,2 (3z B,B,, :|2 G,,2 (3z G,G,, || C,2 (3z CC, | B,,2 (3z A,A,, | %457
 G,,2 (3z G,G,, | F,,2 (3z E,E,, | ^D,2 (3z B,B,, | E,2 (3z GG, | C,2 (3z CC, | B,,2 (3z A,A,, | %463
 G,,2 (3z G,G,, | F,,2 (3z E,E,, | ^D,2 (3z B,B,, | E,2 (3z DD, |: G,,2 (3z B,B,, | %468
 G,,2 (3z B,B,, | G,,2 (3z CC, | G,,2 (3z B,B,, | F,,2 (3z D,D,, |1 G,,2 (3z B,B,, :|2 %473
 G,,2 (3z G,G,, || C,2 (3z CC, | B,,2 (3z A,A,, | G,2 (3z GG, | F,2 (3z EE, | ^D,2 (3z B,B,, | %479
 E,,2 (3z G,G,, | C,2 (3z CC, | B,,2 (3z A,A,, | G,,2 (3z G,G,, | F,,2 (3z E,E,, | ^D,2 (3z B,B,, | %485
 E,2 (3z DD, | G,,2 (3z B,B,, | G,,2 (3z B,B,, | G,,2 z B,, | G,,2 z B,, | G,,4 | G,,4- | %492
 G,, z z2 ||[K:Bb] (G,,!arpeggio!.[B,,D,B,]).D,,.[D,B,] | (G,,!arpeggio!.[B,,D,B,]).D,,.[D,B,] | %495
 (G,,!arpeggio!.[C,E,C]).C,,.[E,C] | (G,,!arpeggio!.[B,,D,B,]).D,,.[D,B,] | %497
 (G,,!arpeggio!.[C,E,C]).C,,.[E,C] | (G,,!arpeggio!.[B,,D,B,]).D,,.[D,B,] | %499
 (.F,,.[D,^F,D]).D,,.[D,F,D] | (G,,!arpeggio!.[B,,D,B,]).D,,.[D,B,] | %501
 (G,,!arpeggio!.[B,,D,B,]).D,,.[D,B,] | (G,,!arpeggio!.[B,,D,B,]).D,,.[D,B,] | %503
 (G,,!arpeggio!.[C,E,C]).C,,.[E,C] | (G,,!arpeggio!.[B,,D,B,]).D,,.[D,B,] | .G,.B,.F,.[A,D] | %506
 .E,.[G,CE].D,.[B,DF] | .D,,.[A,C^F] z .[D,^F,C] | (G,,!arpeggio!.[B,,D,B,]) z2 | %509
 (G,,!arpeggio!.[B,,D,B,]).D,,.[D,B,] | (G,,!arpeggio!.[B,,D,B,]).D,,.[D,B,] | %511
 (G,,!arpeggio!.[C,E,C]).C,,.[E,C] | (G,,!arpeggio!.[B,,D,B,]).D,,.[D,B,] | %513
 (G,,!arpeggio!.[C,E,C]).C,,.[E,C] | (G,,!arpeggio!.[B,,D,B,]).D,,.[D,B,] | %515
 (^F,,!arpeggio!.[D,^F,D]) .D,,.[D,F,C] | (G,,!arpeggio!.[B,,D,B,]).D,,.[D,B,] | %517
 (G,,!arpeggio!.[B,,D,B,]).D,,.[D,B,] | (G,,!arpeggio!.[B,,D,B,]).D,,.[D,B,] | %519
 (G,,!arpeggio!.[C,E,C]).C,,.[E,C] | (G,,!arpeggio!.[B,,D,B,]).D,,.[D,B,] | %521
 .[G,B,E].[B,EG] .[F,A,D].[A,DF] | .[E,G,C].[G,CE] .[D,F,B,].[F,B,D] | .D,,.[D,^F,D] z .[D,F,B,] | %524
 !arpeggio![G,,B,,D,B,]2 z2 |: .=B,,.[G,=B,F].G,,.[G,B,F] | .=B,,.[G,=B,G].G,,.[G,B,F] | %527
 .C,.[G,CE].G,,.[G,CE] | .C,.[G,CE].B,,.[G,CE] | .A,,.[F,A,E].F,,.[F,A,E] | A,,[F,A,F]F,,[F,A,E] | %531
 B,,[F,B,D]F,,[F,A,D] | .^F,,.[D,C].G,,.[D,B,] | B,,[^F,B,D]F,,[F,A,D] | .^F,,.[D,C].D,,.[D,C] | %535
 E,,[B,,E,B,]B,,,[B,,E,B,] | E,,[B,,E,B,]B,,,[D,G,B,] | [D,^F,D^F] z z [D,,D,] | %538
 .[=E,,=E,] z .[^F,,^F,] z | z/4 [G,,,G,,]3/4 [B,,D,B,]2 z | [G,,C,E,C]2 [G,,B,,D,B,] z :: %541
[K:G] G,,,[D,,G,,D,] G,,,[D,,G,,D,] | G,,,[D,,G,,D,] G,,,[D,,G,,D,] | %543
 G,,,[D,,G,,D,] G,,,[D,,G,,D,] | G,,,[D,,G,,D,] G,,,[D,,G,,D,] | G,,,[D,,G,,D,] G,,,[D,,G,,D,] | %546
 G,,,[D,,G,,D,] G,,,[D,,G,,D,] :: G,,,[D,,G,,D,] G,,,[D,,G,,D,] | G,,,[D,,G,,D,] G,,,[D,,G,,D,] | %549
 .[G,,,G,,].[G,G].[E,E].[C,C] | ([G,,G,].[G,B,DG] [D,B,D]2) | G,,,[D,,G,,D,] G,,,[D,,G,,D,] | %552
 G,,,[D,,G,,D,] G,,,[D,,G,,D,] | .[G,,,G,,].[C,C].[D,D].[D,,D,] | ([G,,D,G,]2 [G,B,DG]2) :| %555
[K:Bb] (G,,!arpeggio!.[B,,D,B,]).D,,.[D,B,] | (G,,!arpeggio!.[B,,D,B,]).D,,.[D,B,] | %557
 (G,,!arpeggio!.[C,E,C]).C,,.[E,C] | (G,,!arpeggio!.[B,,D,B,]).D,,.[D,B,] | %559
 (G,,!arpeggio!.[C,E,C]).C,,.[E,C] | (G,,!arpeggio!.[B,,D,B,]).D,,.[D,B,] | %561
 (.F,,.[D,^F,D]).D,,.[D,F,D] | (G,,!arpeggio!.[B,,D,B,]).D,,.[D,B,] | %563
 (G,,!arpeggio!.[B,,D,B,]).D,,.[D,B,] | (G,,!arpeggio!.[B,,D,B,]).D,,.[D,B,] | %565
 (G,,!arpeggio!.[C,E,C]).C,,.[E,C] | (G,,!arpeggio!.[B,,D,B,]).D,,.[D,B,] | .G,.B,.F,.[A,D] | %568
 .E,.[G,CE].D,.[B,DF] | .D,,.[A,C^F] z .[D,^F,C] | (G,,!arpeggio!.[B,,D,B,]) z2 | %571
 (G,,!arpeggio!.[B,,D,B,]).D,,.[D,B,] | (G,,!arpeggio!.[B,,D,B,]).D,,.[D,B,] | %573
 (G,,!arpeggio!.[C,E,C]).C,,.[E,C] | (G,,!arpeggio!.[B,,D,B,]).D,,.[D,B,] | %575
 (G,,!arpeggio!.[C,E,C]).C,,.[E,C] | (G,,!arpeggio!.[B,,D,B,]).D,,.[D,B,] | %577
 (^F,,!arpeggio!.[D,^F,D]) .D,,.[D,F,C] | (G,,!arpeggio!.[B,,D,B,]).D,,.[D,B,] | %579
 (G,,!arpeggio!.[B,,D,B,]).D,,.[D,B,] | (G,,!arpeggio!.[B,,D,B,]).D,,.[D,B,] | %581
 (G,,!arpeggio!.[C,E,C]).C,,.[E,C] | (G,,!arpeggio!.[B,,D,B,]).D,,.[D,B,] | %583
 .[G,B,E].[B,EG] .[F,A,D].[A,DF] | .[E,G,C].[G,CE] .[D,F,B,].[F,B,D] | .D,,.[D,^F,D] z .[D,F,B,] | %586
 !arpeggio![G,,B,,D,B,]2 z2 | .=B,,.[G,=B,F].G,,.[G,B,F] | .=B,,.[G,=B,G].G,,.[G,B,F] | %589
 .C,.[G,CE].G,,.[G,CE] | .C,.[G,CE].B,,.[G,CE] | .A,,.[F,A,E].F,,.[F,A,E] | A,,[F,A,F]F,,[F,A,E] | %593
 B,,[F,B,D]F,,[F,A,D] | .^F,,.[D,C].G,,.[D,B,] | B,,[^F,B,D]F,,[F,A,D] | .^F,,.[D,C].D,,.[D,C] | %597
 E,,[B,,E,B,]B,,,[B,,E,B,] | E,,[B,,E,B,]B,,,[D,G,B,] | [D,^F,D^F] z z [D,,D,] | %600
 .[=E,,=E,] z .[^F,,^F,] z | z/4 [G,,,G,,]3/4 [B,,D,B,]2 z | [G,,C,E,C]2 [G,,B,,D,B,] z | %603
 .[C,,A,,E,] z .[D,,A,,D,] z | [G,,B,,D,B,]3 z |][K:Eb] [E,,E,] z z2 | E, z z2 | E, z z2 | %608
 G,, z z2 | A,, z z2 | F,, z z2 | [B,,,B,,] z z2 | [D,,D,] z z2 | [E,,E,] z z2 | [E,,E,] z z2 | %615
 [E,,E,] z z2 | [G,,,G,,] z z2 | [B,,,B,,] z [D,,D,] z | [E,,E,] z [G,,G,] z | %619
 [F,,F,] z [B,,,B,,] z | [C,,C,] z [E,,E,] z | [B,,,B,,] z [D,,D,] z | [E,,E,] z [G,,G,] z | %623
 [A,,,A,,] z z2 | [B,,F,]4 | [E,,E,][B,,,B,,] [E,,E,] z :: E,,2 z [E,E] | [E,,E,]4 | E,,2 z [E,E] | %629
 [E,,E,]4 | D,B, B,,[B,D] | E,E C,[G,C] | F,,=A,, C,F, | B,,[F,=A,] B,,[F,B,] | E,,2 z [E,E] | %635
 [E,,E,]4 | E,,2 z [E,E] | [E,,E,]4 | [B,,,B,,] z [D,,D,] z | [E,,E,] z [G,,G,] z | %640
 [F,,F,] z [B,,,B,,] z | [C,,C,] z [E,,E,] z | [B,,,B,,] z [D,,D,] z | [E,,E,] z [G,,G,] z | %644
 [A,,,A,,] z z2 | [B,,F,]4 | [E,,E,][B,,,B,,] [E,,E,] z ::[K:Gb] [E,,E,]2 [G,,G,]2 | %648
 [B,,,B,,]2 [=D,,=D,][A,,A,] | [G,,G,]2 [=A,,,=A,,]2 | [B,,,B,,]2 z2 | [B,,,B,,]2 [=D,,B,,=D,]2 | %652
 [F,,B,,F,]2 [E,,B,,E,][_D,,B,,_D,] | [C,,C,]2 F,,2 | [B,,,B,,]2 [B,,,B,,]2 :: [G,,D,]G, z2 | %656
 [F,,D,]A, z2 | [D,,F,,]D, z2 | [G,,D,]G, z2 | =D=D, EE, | B,B,, CC, | B,B,, B,B,, |1 %662
 E,B,, E, z :|2 E,B,, E, z ||[K:Eb] [E,,E,] z z2 | E, z z2 | E, z z2 | G,, z z2 | A,, z z2 | %669
 F,, z z2 | [B,,,B,,] z z2 | [D,,D,] z z2 | [E,,E,] z z2 | [E,,E,] z z2 | [E,,E,] z z2 | %675
 [G,,,G,,] z z2 | [B,,,B,,] z [D,,D,] z | [E,,E,] z [G,,G,] z | [F,,F,] z [B,,,B,,] z | %679
 [C,,C,] z [E,,E,] z | [B,,,B,,] z [D,,D,] z | [E,,E,] z [G,,G,] z | [A,,,A,,] z z2 | [B,,F,]4 | %684
 [E,,E,][B,,,B,,] [E,,E,] z | [E,,E,] z z2 | E, z z2 | E, z z2 | G,, z z2 | A,, z z2 | F,, z z2 | %691
 [B,,,B,,] z z2 | [D,,D,] z z2 | [E,,E,] z z2 | [E,,E,] z z2 | [E,,E,] z z2 | [G,,,G,,] z z2 | %697
 [B,,,B,,] z [D,,D,] z | [E,,E,] z [G,,G,] z | [F,,F,] z [B,,,B,,] z | [C,,C,] z [E,,E,] z | %701
 [B,,,B,,] z [D,,D,] z | [E,,E,] z [G,,G,] z | [A,,,A,,] z z2 | [B,,F,]4 | %705
 [E,,E,][B,,,B,,] [E,,E,] z | E,,2 z [E,E] | [E,,E,]4 | E,,2 z [E,E] | [E,,E,]4 | D,B, B,,[B,D] | %711
 E,E C,[G,C] | F,,=A,, C,F, | B,,[F,=A,] B,,[F,B,] | E,,2 z [E,E] | [E,,E,]4 | E,,2 z [E,E] | %717
 [E,,E,]4 | [B,,,B,,] z [D,,D,] z | [E,,E,] z [G,,G,] z | [F,,F,] z [B,,,B,,] z | %721
 [C,,C,] z [E,,E,] z | [B,,,B,,] z [D,,D,] z | [E,,E,] z [G,,G,] z | [A,,,A,,] z z2 | [B,,F,]4 | %726
 [E,,E,][B,,,B,,] [E,,E,] z | [A,,,A,,] z [B,,,B,,] z | [E,,,E,,] z z2 |] %729
V:5
 G,,,4 | G,,,4 | G,,,4 | G,,,4 | G,,,4 | G,,,4 | G,,,4 | G,,,4 | F,,,4 | G,,,4 | C,,4 | C,,4 | %12
 D,,4 | D,,4 | D,,4 | D,,4 | D,,4 | D,,4 | C,,4 | C,,4 | D,,4 | D,,,4 | G,,,4 | G,,,4 || G,,,4 | %25
 G,,,4 | G,,,4 | G,,,4 | G,,,4 | G,,,4 | G,,,4 | G,,,4 | F,,,4 | G,,,4 | C,,4 | C,,4 | D,,4 | %37
 D,,4 | E,,4 | C,,4 | D,,4 | D,,4 | C,,4 | C,,4 | D,,4 | D,,,4 | G,,,4 | G,,,4 || x4 | x4 | x4 | %51
 x4 | x4 | x4 | x4 | x4 | x4 | x4 | x4 | x4 || G,,,4- | G,,,4 | G,,4 | x4 | x4 | x4 | D,4 | x4 | %68
 x4 | x4 | x4 | x4 |: x4 | x4 | x4 | x4 | x4 | x4 | x4 | x4 :: x4 | x4 | x4 | x4 | x4 | x4 | x4 | %87
 x4 | x4 | x4 | x4 | x4 :| G,,,4 | G,,,4 | G,,,4 | G,,,4 | G,,,4 | G,,,4 | G,,,4 | G,,,4 | F,,,4 | %101
 G,,,4 | C,,4 | C,,4 | D,,4 | D,,4 | D,,4 | D,,4 | D,,4 | D,,4 | C,,4 | C,,4 | D,,4 | D,,,4 | %114
 G,,,4 | G,,,4 || G,,,4 | G,,,4 | G,,,4 | G,,,4 | G,,,4 | G,,,4 | G,,,4 | G,,,4 | F,,,4 | G,,,4 | %126
 C,,4 | C,,4 | D,,4 | D,,4 | E,,4 | C,,4 | D,,4 | D,,4 | C,,4 | C,,4 | D,,4 | D,,,4 | G,,,4 | %139
 G,,,4 || x4 | x4 | x4 | x4 | x4 | x4 | x4 | x4 | x4 | x4 | x4 | x4 | G,,,4- | G,,,4 | G,,4 | x4 | %156
 x4 | x4 | D,4 | x4 | x4 | x4 | x4 | x4 | x4 | x4 | x4 |][K:F] x4 | x4 | x4 | x4 | x4 | x4 | x4 | %174
 x4 | x4 | x4 | x4 | x4 | x4 | x4 | x4 | x4 :: x4 | x4 | x4 | x4 | x4 | x4 | x4 | x4 | x4 | x4 | %193
 x4 | x4 | x4 | x4 | x4 | x4 :| x4 | x4 | x4 | x4 | x4 | x4 | x4 | x4 | x4 | x4 | x4 | x4 | x4 | %212
 x4 | x4 | x4 |[K:D] x4 | x4 | x4 | x4 | x4 | x4 | x4 | x4 | x4 | x4 | x4 | x4 | x4 | x4 | x4 | %230
 x4 | x4 | x4 | x4 | x4 | x4 | x4 | x4 | x4 | x4 | x4 | x4 | x4 | x4 | x4 | x4 | x4 | x4 | x4 | %249
 x4 | x4 |:[K:F] x4 | x4 | x4 | x4 | x4 | x4 | x4 | x4 | x4 | x4 | x4 | x4 | x4 | x4 | x4 | x4 :: %267
 x4 | x4 | x4 | x4 | x4 | x4 | x4 | x4 | x4 | x4 | x4 | x4 | x4 | x4 | x4 | x4 :| x4 | x4 | x4 | %286
 x4 | x4 | x4 | x4 | x4 | x4 | x4 | x4 | x4 | x4 | x4 | x4 | x4 | x4 | x4 | x4 | x4 | x4 |] %304
[K:F] x |: x4 | x4 | x4 | x4 | x4 |1 x4 :|2 x4 || x4 | x4 | x4 | x4 | x4 | x4 | x4 | x4 | x4 | x4 | %322
 x4 | x4 |: x4 | x4 | x4 | x4 | x4 |1 x4 :|2 x4 || x4 | x4 | x4 | x4 | x4 | x4 | x4 | x4 | x4 | %340
 x4 | x4 | x4 |[K:D] x4 | x4 | x4 | x4 | x4 | x4 | x4 | x4 | x4 | x4 | x4 | x4 |[K:F] x4 | x4 | %357
 x4 | x4 | x4 | x4 | x4 | x4 | x4 | x4 | x4 | x4 | x4 | x4 | x4 | x4 | x4 | x4 | x4 | x4 | x4 | %376
 x4 | x4 | x4 |][K:Bb] x3 | x4 | x4 | x4 | x4 | x4 | x4 | x4 | x4 | x4 | x4 | x4 | x4 | x4 | x4 | %394
 x4 | x4 | x4 | x4 | x4 | x4 | x4 | x4 | x4 | x4 | x4 | x4 | x4 | x4 | x4 | x4 | x4 | x4 |: x4 | %413
 x4 | x4 | x4 | x4 | x4 | x4 | x4 | x4 | x4 | x4 | x4 | x4 | x4 | x4 |1 x4 :|2 x4 || x4 | x4 | x4 | %432
 x4 | x4 | x4 | x4 | x4 | x4 | x4 | x4 | x4 | x4 | x4 | x4 | x4 | x4 |][K:G] x4 | x4 |: x4 | x4 | %450
 x4 | x4 | x4 |1 x4 :|2 x4 || x4 | x4 | x4 | x4 | x4 | x4 | x4 | x4 | x4 | x4 | x4 | x4 |: x4 | %468
 x4 | x4 | x4 | x4 |1 x4 :|2 x4 || x4 | x4 | x4 | x4 | x4 | x4 | x4 | x4 | x4 | x4 | x4 | x4 | x4 | %487
 x4 | x4 | x4 | x4 | x4 | x4 ||[K:Bb] x4 | x4 | x4 | x4 | x4 | x4 | x4 | x4 | x4 | x4 | x4 | x4 | %505
 x4 | x4 | x4 | x4 | x4 | x4 | x4 | x4 | x4 | x4 | x4 | x4 | x4 | x4 | x4 | x4 | x4 | x4 | x4 | %524
 x4 |: x4 | x4 | x4 | x4 | x4 | x4 | x4 | x4 | x4 | x4 | x4 | x4 | x4 | x4 | x4 | x4 ::[K:G] x4 | %542
 x4 | x4 | x4 | x4 | x4 :: x4 | x4 | x4 | x4 | x4 | x4 | x4 | x4 :|[K:Bb] x4 | x4 | x4 | x4 | x4 | %560
 x4 | x4 | x4 | x4 | x4 | x4 | x4 | x4 | x4 | x4 | x4 | x4 | x4 | x4 | x4 | x4 | x4 | x4 | x4 | %579
 x4 | x4 | x4 | x4 | x4 | x4 | x4 | x4 | x4 | x4 | x4 | x4 | x4 | x4 | x4 | x4 | x4 | x4 | x4 | %598
 x4 | x4 | x4 | x4 | x4 | x4 | x4 |][K:Eb] x4 | x4 | x4 | x4 | x4 | x4 | x4 | x4 | x4 | x4 | x4 | %616
 x4 | x4 | x4 | x4 | x4 | x4 | x4 | x4 | x4 | x4 :: x4 | x4 | x4 | x4 | x4 | x4 | F,,4 | x4 | x4 | %635
 x4 | x4 | x4 | x4 | x4 | x4 | x4 | x4 | x4 | x4 | x4 | x4 ::[K:Gb] x4 | x4 | x4 | x4 | x4 | x4 | %653
 x4 | x4 :: x4 | x4 | x4 | x4 | x4 | x4 | x4 |1 x4 :|2 x4 ||[K:Eb] x4 | x4 | x4 | x4 | x4 | x4 | %670
 x4 | x4 | x4 | x4 | x4 | x4 | x4 | x4 | x4 | x4 | x4 | x4 | x4 | x4 | x4 | x4 | x4 | x4 | x4 | %689
 x4 | x4 | x4 | x4 | x4 | x4 | x4 | x4 | x4 | x4 | x4 | x4 | x4 | x4 | x4 | x4 | x4 | x4 | x4 | %708
 x4 | x4 | x4 | x4 | F,,4 | x4 | x4 | x4 | x4 | x4 | x4 | x4 | x4 | x4 | x4 | x4 | x4 | x4 | x4 | %727
 x4 | x4 |] %729
V:6
 x4 | x4 | x4 | x4 | x4 | x4 | x4 | x4 | x4 | x4 | x4 | x4 | x4 | x4 | x4 | x4 | x4 | x4 | x4 | %19
 x4 | x4 | x4 | x4 | x4 || x4 | x4 | x4 | x4 | x4 | x4 | x4 | x4 | x4 | x4 | x4 | x4 | x4 | x4 | %38
 x4 | x4 | x4 | x4 | x4 | x4 | x4 | x4 | x4 | x4 || x4 | x4 | x4 | x4 | x4 | x4 | x4 | x4 | x4 | %57
 x4 | x4 | x4 || x4 | x4 | x4 | x4 | x4 | x4 | x4 | x4 | x4 | x4 | x4 | x4 |: x4 | x4 | x4 | x4 | %76
 x4 | x4 | x4 | x4 :: x4 | x4 | x4 | x4 | x4 | x4 | x4 | x4 | x4 | x4 | x4 | x4 :| x4 | x4 | x4 | %95
 x4 | x4 | x4 | x4 | x4 | x4 | x4 | x4 | x4 | x4 | x4 | x4 | x4 | x4 | x4 | x4 | x4 | x4 | x4 | %114
 x4 | x4 || x4 | x4 | x4 | x4 | x4 | x4 | x4 | x4 | x4 | x4 | x4 | x4 | x4 | x4 | x4 | x4 | x4 | %133
 x4 | x4 | x4 | x4 | x4 | x4 | x4 || x4 | x4 | x4 | x4 | x4 | x4 | x4 | x4 | x4 | x4 | x4 | x4 | %152
 x4 | x4 | x4 | x4 | x4 | x4 | x4 | x4 | x4 | x4 | x4 | x4 | x4 | x4 | x4 |][K:F] x4 | x4 | x4 | %170
 x4 | x4 | x4 | x4 | x4 | x4 | x4 | x4 | x4 | x4 | x4 | x4 | x4 :: x4 | x4 | x4 | x4 | x4 | x4 | %189
 x4 | x4 | x4 | x4 | x4 | x4 | x4 | x4 | x4 | x4 :| x4 | x4 | x4 | x4 | x4 | x4 | x4 | x4 | x4 | %208
 x4 | x4 | x4 | x4 | x4 | x4 | x4 |[K:D] x4 | x4 | x4 | x4 | x4 | x4 | x4 | x4 | x4 | x4 | x4 | %226
 x4 | x4 | x4 | x4 | x4 | x4 | x4 | x4 | x4 | x4 | x4 | x4 | x4 | x4 | x4 | x4 | x4 | x4 | x4 | %245
 x4 | x4 | x4 | x4 | x4 | x4 |:[K:F] x4 | x4 | x4 | x4 | x4 | x4 | x4 | x4 | x4 | x4 | x4 | x4 | %263
 x4 | x4 | x4 | x4 :: x4 | x4 | x4 | x4 | x4 | x4 | x4 | x4 | x4 | x4 | x4 | x4 | x4 | x4 | x4 | %282
 x4 :| x4 | x4 | x4 | x4 | x4 | x4 | x4 | x4 | x4 | x4 | x4 | x4 | x4 | x4 | x4 | x4 | x4 | x4 | %301
 x4 | x4 | x4 |][K:F] x |: x4 | x4 | x4 | x4 | x4 |1 x4 :|2 x4 || x4 | x4 | x4 | x4 | x4 | x4 | %318
 x4 | x4 | x4 | x4 | x4 | x4 |: x4 | x4 | x4 | x4 | x4 |1 x4 :|2 x4 || x4 | x4 | x4 | x4 | x4 | %336
 x4 | x4 | x4 | x4 | x4 | x4 | x4 |[K:D] x4 | x4 | x4 | x4 | x4 | x4 | x4 | x4 | x4 | x4 | x4 | %354
 x4 |[K:F] x4 | x4 | x4 | x4 | x4 | x4 | x4 | x4 | x4 | x4 | x4 | x4 | x4 | x4 | x4 | x4 | x4 | %372
 x4 | x4 | x4 | x4 | x4 | x4 | x4 |][K:Bb] x3 | x4 | x4 | x4 | x4 | x4 | x4 | x4 | x4 | x4 | x4 | %390
 x4 | x4 | x4 | x4 | x4 | x4 | x4 | x4 | x4 | x4 | x4 | x4 | x4 | x4 | x4 | x4 | x4 | x4 | x4 | %409
 x4 | x4 | x4 |: x4 | x4 | x4 | x4 | x4 | x4 | x4 | x4 | x4 | x4 | x4 | x4 | x4 | x4 | x4 |1 x4 :|2 %428
 x4 || x4 | x4 | x4 | x4 | x4 | x4 | x4 | x4 | x4 | x4 | x4 | x4 | x4 | x4 | x4 | x4 | x4 |] %446
[K:G] x4 | x4 |: x4 | x4 | x4 | x4 | x4 |1 x4 :|2 x4 || x4 | x4 | x4 | x4 | x4 | x4 | x4 | x4 | %463
 x4 | x4 | x4 | x4 |: x4 | x4 | x4 | x4 | x4 |1 x4 :|2 x4 || x4 | x4 | x4 | x4 | x4 | x4 | x4 | %481
 x4 | x4 | x4 | x4 | x4 | x4 | x4 | x4 | x4 | x4 | x4 | x4 ||[K:Bb] x4 | x4 | x4 | x4 | x4 | x4 | %499
 x4 | x4 | x4 | x4 | x4 | x4 | x4 | x4 | x4 | x4 | x4 | x4 | x4 | x4 | x4 | x4 | x4 | x4 | x4 | %518
 x4 | x4 | x4 | x4 | x4 | x4 | x4 |: x4 | x4 | x4 | x4 | x4 | x4 | x4 | x4 | x4 | x4 | x4 | x4 | %537
 x4 | x4 | x4 | x4 ::[K:G] x4 | x4 | x4 | x4 | x4 | x4 :: x4 | x4 | x4 | x4 | x4 | x4 | x4 | x4 :| %555
[K:Bb] x4 | x4 | x4 | x4 | x4 | x4 | x4 | x4 | x4 | x4 | x4 | x4 | x4 | x4 | x4 | x4 | x4 | x4 | %573
 x4 | x4 | x4 | x4 | x4 | x4 | x4 | x4 | x4 | x4 | x4 | x4 | x4 | x4 | x4 | x4 | x4 | x4 | x4 | %592
 x4 | x4 | x4 | x4 | x4 | x4 | x4 | x4 | x4 | x4 | x4 | x4 | x4 |][K:Eb] x4 | x4 | x4 | x4 | x4 | %610
 x4 | x4 | x4 | x4 | x4 | x4 | x4 | x4 | x4 | x4 | x4 | x4 | x4 | x4 | x4 | x4 :: x4 | x4 | x4 | %629
 x4 | x4 | x4 | z =A,2 A, | x4 | x4 | x4 | x4 | x4 | x4 | x4 | x4 | x4 | x4 | x4 | x4 | x4 | x4 :: %647
[K:Gb] x4 | x4 | x4 | x4 | x4 | x4 | x4 | x4 :: x4 | x4 | x4 | x4 | x4 | x4 | x4 |1 x4 :|2 x4 || %664
[K:Eb] x4 | x4 | x4 | x4 | x4 | x4 | x4 | x4 | x4 | x4 | x4 | x4 | x4 | x4 | x4 | x4 | x4 | x4 | %682
 x4 | x4 | x4 | x4 | x4 | x4 | x4 | x4 | x4 | x4 | x4 | x4 | x4 | x4 | x4 | x4 | x4 | x4 | x4 | %701
 x4 | x4 | x4 | x4 | x4 | x4 | x4 | x4 | x4 | x4 | x4 | z =A,2 A, | x4 | x4 | x4 | x4 | x4 | x4 | %719
 x4 | x4 | x4 | x4 | x4 | x4 | x4 | x4 | x4 | x4 |] %729

